; generated by PrusaSlicer 2.2.0+linux-x64 on 2021-03-15 at 17:42:34 UTC

; 

; external perimeters extrusion width = 0.45mm
; perimeters extrusion width = 0.45mm
; infill extrusion width = 0.45mm
; solid infill extrusion width = 0.45mm
; top infill extrusion width = 0.40mm
; first layer extrusion width = 0.42mm

M73 P0 R9
M73 Q0 S10
M201 X1000 Y1000 Z200 E5000 ; sets maximum accelerations, mm/sec^2
M203 X200 Y200 Z12 E120 ; sets maximum feedrates, mm/sec
M204 P1250 R1250 T1250 ; sets acceleration (P, T) and retract acceleration (R), mm/sec^2
M205 X8.00 Y8.00 Z0.40 E4.50 ; sets the jerk limits, mm/sec
M205 S0 T0 ; sets the minimum extruding and travel feed rate, mm/sec
M107
M862.3 P "MK3S" ; printer model check
M862.1 P0.4 ; nozzle diameter check
M115 U3.9.3 ; tell printer latest fw version
G90 ; use absolute coordinates
M83 ; extruder relative mode
M104 S215 ; set extruder temp
M140 S60 ; set bed temp
M190 S60 ; wait for bed temp
M109 S215 ; wait for extruder temp
G28 W ; home all without mesh bed level
G80 ; mesh bed leveling
G1 Y-3.0 F1000.0 ; go outside print area
G92 E0.0
G1 X60.0 E9.0 F1000.0 ; intro line
M73 Q0 S9
M73 P0 R9
G1 X100.0 E12.5 F1000.0 ; intro line
G92 E0.0
M221 S95

; Don't change E values below. Excessive value can damage the printer.
M907 E430 ; set extruder motor current
G21 ; set units to millimeters
G90 ; use absolute coordinates
M83 ; use relative distances for extrusion
M900 K0.05 ; Filament gcode LA 1.5
M900 K30 ; Filament gcode LA 1.0
;BEFORE_LAYER_CHANGE
G92 E0.0
;0.2


G1 E-0.80000 F2100.00000
G1 Z0.400 F10800.000
;AFTER_LAYER_CHANGE
;0.2
G1 X108.181 Y100.883
G1 Z0.200
G1 E0.80000 F2100.00000
M204 S1000
G1 F1200.000
G1 X108.645 Y100.260 E0.02434
G1 X120.258 Y88.647 E0.51495
G1 X120.677 Y88.305 E0.01694
G1 X121.320 Y87.990 E0.02243
G1 X122.021 Y87.852 E0.02243
G1 X127.804 Y87.846 E0.18131
G1 X128.817 Y88.040 E0.03233
G1 X129.687 Y88.594 E0.03233
G1 X141.371 Y100.276 E0.51804
G1 X141.934 Y101.120 E0.03183
G1 X142.095 Y101.632 E0.01681
G1 X142.154 Y102.165 E0.01681
G1 X142.154 Y119.416 E0.54091
G1 X142.066 Y120.090 E0.02129
G1 X141.819 Y120.717 E0.02116
G1 X141.401 Y121.293 E0.02231
G1 X140.849 Y121.742 E0.02231
G1 X140.201 Y122.035 E0.02231
G1 X139.495 Y122.153 E0.02243
G1 X110.571 Y122.154 E0.90688
G1 X109.906 Y122.065 E0.02103
G1 X109.283 Y121.819 E0.02103
G1 X108.716 Y121.409 E0.02192
G1 X108.271 Y120.870 E0.02192
G1 X107.975 Y120.232 E0.02205
G1 X107.850 Y119.544 E0.02192
G1 X107.846 Y102.151 E0.54536
G1 X107.938 Y101.495 E0.02078
G1 X108.159 Y100.938 E0.01877
G1 X108.508 Y101.079 F10800.000
G1 F1200.000
G1 X108.913 Y100.525 E0.02152
G1 X120.884 Y88.620 E0.52933
G1 X121.447 Y88.345 E0.01965
G1 X122.062 Y88.227 E0.01965
G1 X127.804 Y88.223 E0.18002
G1 X128.681 Y88.392 E0.02802
G1 X129.434 Y88.874 E0.02802
G1 X141.097 Y100.535 E0.51713
G1 X141.589 Y101.273 E0.02778
G1 X141.777 Y102.177 E0.02896
G1 X141.777 Y119.411 E0.54039
G1 X141.700 Y119.999 E0.01858
G1 X141.481 Y120.550 E0.01858
G1 X141.119 Y121.042 E0.01917
G1 X140.639 Y121.428 E0.01929
G1 X140.077 Y121.679 E0.01929
G1 X139.470 Y121.776 E0.01929
G1 X110.577 Y121.777 E0.90590
G1 X109.997 Y121.699 E0.01835
G1 X109.450 Y121.481 E0.01846
G1 X108.963 Y121.124 E0.01894
G1 X108.580 Y120.652 E0.01906
G1 X108.329 Y120.103 E0.01894
G1 X108.225 Y119.508 E0.01894
G1 X108.223 Y102.162 E0.54386
G1 X108.303 Y101.590 E0.01811
G1 X108.486 Y101.134 E0.01539
; printing object button-Cube.stl id:0 copy 3
G1 F8640.000
G1 X108.913 Y100.525 E-0.17193
G1 X110.719 Y98.729 E-0.58807
G1 E-0.04000 F2100.00000
G1 Z0.600 F10800.000
G1 X111.387 Y102.987
G1 Z0.200
G1 E0.80000 F2100.00000
G1 F1200.000
G1 X115.413 Y102.987 E0.12623
G1 X115.413 Y107.013 E0.12623
G1 X111.387 Y107.013 E0.12623
G1 X111.387 Y103.047 E0.12435
G1 X111.010 Y102.610 F10800.000
G1 F1200.000
G1 X115.790 Y102.610 E0.14987
G1 X115.790 Y107.390 E0.14987
G1 X111.010 Y107.390 E0.14987
G1 X111.010 Y102.670 E0.14799
G1 X111.396 Y102.714 F10800.000
G1 F8640.000
G1 X114.301 Y102.629 E-0.76000
G1 E-0.04000 F2100.00000
G1 Z0.600 F10800.000
G1 X115.300 Y103.885
G1 Z0.200
G1 E0.80000 F2100.00000
G1 F1200.000
G1 X114.685 Y103.270 E0.02803
G1 X114.137 Y103.270 E0.01767
G1 X115.130 Y104.263 E0.04528
G1 X115.130 Y104.812 E0.01767
G1 X113.588 Y103.270 E0.07027
G1 X113.040 Y103.270 E0.01767
G1 X115.130 Y105.360 E0.09526
G1 X115.130 Y105.908 E0.01767
G1 X112.492 Y103.270 E0.12025
G1 X111.944 Y103.270 E0.01767
G1 X115.130 Y106.456 E0.14523
G1 X115.130 Y106.730 E0.00883
G1 X114.856 Y106.730 E0.00884
G1 X111.670 Y103.544 E0.14523
G1 X111.670 Y104.092 E0.01767
G1 X114.308 Y106.730 E0.12024
G1 X113.760 Y106.730 E0.01767
G1 X111.670 Y104.640 E0.09525
G1 X111.670 Y105.189 E0.01767
G1 X113.211 Y106.730 E0.07027
G1 X112.663 Y106.730 E0.01767
G1 X111.670 Y105.737 E0.04528
G1 X111.670 Y106.285 E0.01767
G1 X112.285 Y106.900 E0.02802
; stop printing object button-Cube.stl id:0 copy 3
; printing object button-Cube.stl id:0 copy 2
G1 F8640.000
G1 X111.670 Y106.285 E-0.20077
G1 X111.670 Y105.737 E-0.12658
G1 X112.663 Y106.730 E-0.32437
G1 X113.132 Y106.730 E-0.10829
G1 E-0.04000 F2100.00000
G1 Z0.600 F10800.000
G1 X111.387 Y114.587
G1 Z0.200
G1 E0.80000 F2100.00000
G1 F1200.000
G1 X115.413 Y114.587 E0.12623
G1 X115.413 Y118.613 E0.12623
G1 X111.387 Y118.613 E0.12623
G1 X111.387 Y114.647 E0.12435
G1 X111.010 Y114.210 F10800.000
G1 F1200.000
G1 X115.790 Y114.210 E0.14987
G1 X115.790 Y118.990 E0.14987
G1 X111.010 Y118.990 E0.14987
G1 X111.010 Y114.270 E0.14799
G1 X111.396 Y114.314 F10800.000
G1 F8640.000
G1 X114.301 Y114.229 E-0.76000
G1 E-0.04000 F2100.00000
G1 Z0.600 F10800.000
G1 X115.300 Y115.485
G1 Z0.200
G1 E0.80000 F2100.00000
G1 F1200.000
G1 X114.685 Y114.870 E0.02803
G1 X114.137 Y114.870 E0.01767
G1 X115.130 Y115.863 E0.04528
G1 X115.130 Y116.412 E0.01767
G1 X113.588 Y114.870 E0.07027
G1 X113.040 Y114.870 E0.01767
G1 X115.130 Y116.960 E0.09526
G1 X115.130 Y117.508 E0.01767
G1 X112.492 Y114.870 E0.12025
G1 X111.944 Y114.870 E0.01767
G1 X115.130 Y118.056 E0.14523
G1 X115.130 Y118.330 E0.00883
G1 X114.856 Y118.330 E0.00884
G1 X111.670 Y115.144 E0.14523
G1 X111.670 Y115.692 E0.01767
G1 X114.308 Y118.330 E0.12024
G1 X113.760 Y118.330 E0.01767
G1 X111.670 Y116.240 E0.09525
G1 X111.670 Y116.789 E0.01767
G1 X113.211 Y118.330 E0.07027
G1 X112.663 Y118.330 E0.01767
G1 X111.670 Y117.337 E0.04528
G1 X111.670 Y117.885 E0.01767
G1 X112.285 Y118.500 E0.02802
; stop printing object button-Cube.stl id:0 copy 2
; printing object button-Cube.stl id:0 copy 1
G1 F8640.000
G1 X111.670 Y117.885 E-0.20077
G1 X111.670 Y117.337 E-0.12658
G1 X112.663 Y118.330 E-0.32437
G1 X113.132 Y118.330 E-0.10829
G1 E-0.04000 F2100.00000
G1 Z0.600 F10800.000
G1 X122.987 Y118.500
G1 Z0.200
G1 E0.80000 F2100.00000
G1 F1200.000
G1 X122.987 Y114.587 E0.12268
G1 X127.013 Y114.587 E0.12623
G1 X127.013 Y118.613 E0.12623
G1 X122.987 Y118.613 E0.12623
G1 X122.987 Y118.560 E0.00167
G1 X122.610 Y118.990 F10800.000
G1 F1200.000
G1 X122.610 Y114.210 E0.14987
G1 X127.390 Y114.210 E0.14987
G1 X127.390 Y118.990 E0.14987
G1 X122.670 Y118.990 E0.14799
G1 X122.714 Y118.604 F10800.000
G1 F8640.000
G1 X122.629 Y115.699 E-0.76000
G1 E-0.04000 F2100.00000
G1 Z0.600 F10800.000
G1 X126.900 Y115.485
G1 Z0.200
G1 E0.80000 F2100.00000
G1 F1200.000
G1 X126.285 Y114.870 E0.02803
G1 X125.737 Y114.870 E0.01767
G1 X126.730 Y115.863 E0.04528
G1 X126.730 Y116.412 E0.01767
G1 X125.188 Y114.870 E0.07027
G1 X124.640 Y114.870 E0.01767
G1 X126.730 Y116.960 E0.09526
G1 X126.730 Y117.508 E0.01767
G1 X124.092 Y114.870 E0.12025
G1 X123.544 Y114.870 E0.01767
G1 X126.730 Y118.056 E0.14523
G1 X126.730 Y118.330 E0.00883
G1 X126.456 Y118.330 E0.00884
G1 X123.270 Y115.144 E0.14523
G1 X123.270 Y115.692 E0.01767
G1 X125.908 Y118.330 E0.12024
G1 X125.360 Y118.330 E0.01767
G1 X123.270 Y116.240 E0.09525
G1 X123.270 Y116.789 E0.01767
G1 X124.811 Y118.330 E0.07027
G1 X124.263 Y118.330 E0.01767
G1 X123.270 Y117.337 E0.04528
G1 X123.270 Y117.885 E0.01767
G1 X123.885 Y118.500 E0.02802
; stop printing object button-Cube.stl id:0 copy 1
; printing object button-Cube.stl id:0 copy 0
G1 F8640.000
G1 X123.270 Y117.885 E-0.20077
G1 X123.270 Y117.337 E-0.12658
G1 X124.263 Y118.330 E-0.32437
G1 X124.732 Y118.330 E-0.10829
G1 E-0.04000 F2100.00000
G1 Z0.600 F10800.000
G1 X122.987 Y107.013
G1 Z0.200
G1 E0.80000 F2100.00000
G1 F1200.000
G1 X122.987 Y102.987 E0.12623
G1 X127.013 Y102.987 E0.12623
G1 X127.013 Y107.013 E0.12623
G1 X123.047 Y107.013 E0.12435
G1 X122.610 Y107.390 F10800.000
G1 F1200.000
G1 X122.610 Y102.610 E0.14987
G1 X127.390 Y102.610 E0.14987
G1 X127.390 Y107.390 E0.14987
G1 X122.670 Y107.390 E0.14799
G1 X122.714 Y107.004 F10800.000
G1 F8640.000
G1 X122.629 Y104.099 E-0.76000
G1 E-0.04000 F2100.00000
G1 Z0.600 F10800.000
G1 X126.900 Y103.885
G1 Z0.200
G1 E0.80000 F2100.00000
G1 F1200.000
G1 X126.285 Y103.270 E0.02803
G1 X125.737 Y103.270 E0.01767
G1 X126.730 Y104.263 E0.04528
G1 X126.730 Y104.812 E0.01767
G1 X125.188 Y103.270 E0.07027
G1 X124.640 Y103.270 E0.01767
G1 X126.730 Y105.360 E0.09526
G1 X126.730 Y105.908 E0.01767
G1 X124.092 Y103.270 E0.12025
G1 X123.544 Y103.270 E0.01767
G1 X126.730 Y106.456 E0.14523
G1 X126.730 Y106.730 E0.00883
G1 X126.456 Y106.730 E0.00884
G1 X123.270 Y103.544 E0.14523
G1 X123.270 Y104.092 E0.01767
G1 X125.908 Y106.730 E0.12024
G1 X125.360 Y106.730 E0.01767
G1 X123.270 Y104.640 E0.09525
G1 X123.270 Y105.189 E0.01767
G1 X124.811 Y106.730 E0.07027
G1 X124.263 Y106.730 E0.01767
G1 X123.270 Y105.737 E0.04528
G1 X123.270 Y106.285 E0.01767
G1 X123.885 Y106.900 E0.02802
; stop printing object button-Cube.stl id:0 copy 0
; printing object button-Cube.stl id:0 copy 6
G1 F8640.000
G1 X123.270 Y106.285 E-0.20077
G1 X123.270 Y105.737 E-0.12658
G1 X124.263 Y106.730 E-0.32437
G1 X124.732 Y106.730 E-0.10829
G1 E-0.04000 F2100.00000
G1 Z0.600 F10800.000
G1 X122.987 Y95.413
G1 Z0.200
G1 E0.80000 F2100.00000
G1 F1200.000
G1 X122.987 Y91.387 E0.12623
G1 X127.013 Y91.387 E0.12623
G1 X127.013 Y95.413 E0.12623
G1 X123.047 Y95.413 E0.12435
G1 X122.610 Y95.790 F10800.000
G1 F1200.000
G1 X122.610 Y91.010 E0.14987
G1 X127.390 Y91.010 E0.14987
G1 X127.390 Y95.790 E0.14987
G1 X122.670 Y95.790 E0.14799
G1 X122.714 Y95.404 F10800.000
G1 F8640.000
G1 X122.629 Y92.499 E-0.76000
G1 E-0.04000 F2100.00000
G1 Z0.600 F10800.000
G1 X126.900 Y92.285
G1 Z0.200
G1 E0.80000 F2100.00000
G1 F1200.000
G1 X126.285 Y91.670 E0.02803
G1 X125.737 Y91.670 E0.01767
G1 X126.730 Y92.663 E0.04528
G1 X126.730 Y93.212 E0.01767
G1 X125.188 Y91.670 E0.07027
G1 X124.640 Y91.670 E0.01767
G1 X126.730 Y93.760 E0.09526
G1 X126.730 Y94.308 E0.01767
G1 X124.092 Y91.670 E0.12025
G1 X123.544 Y91.670 E0.01767
G1 X126.730 Y94.856 E0.14523
G1 X126.730 Y95.130 E0.00883
G1 X126.456 Y95.130 E0.00884
G1 X123.270 Y91.944 E0.14523
G1 X123.270 Y92.492 E0.01767
G1 X125.908 Y95.130 E0.12024
G1 X125.360 Y95.130 E0.01767
G1 X123.270 Y93.040 E0.09525
G1 X123.270 Y93.589 E0.01767
G1 X124.811 Y95.130 E0.07027
G1 X124.263 Y95.130 E0.01767
G1 X123.270 Y94.137 E0.04528
G1 X123.270 Y94.685 E0.01767
G1 X123.885 Y95.300 E0.02802
; stop printing object button-Cube.stl id:0 copy 6
; printing object button-Cube.stl id:0 copy 4
G1 F8640.000
G1 X123.270 Y94.685 E-0.20077
G1 X123.270 Y94.137 E-0.12658
G1 X124.263 Y95.130 E-0.32437
G1 X124.732 Y95.130 E-0.10829
G1 E-0.04000 F2100.00000
G1 Z0.600 F10800.000
G1 X134.587 Y102.987
G1 Z0.200
G1 E0.80000 F2100.00000
G1 F1200.000
G1 X138.613 Y102.987 E0.12623
G1 X138.613 Y107.013 E0.12623
G1 X134.587 Y107.013 E0.12623
G1 X134.587 Y103.047 E0.12435
G1 X134.210 Y102.610 F10800.000
G1 F1200.000
G1 X138.990 Y102.610 E0.14987
G1 X138.990 Y107.390 E0.14987
G1 X134.210 Y107.390 E0.14987
G1 X134.210 Y102.670 E0.14799
G1 X134.596 Y102.714 F10800.000
G1 F8640.000
G1 X137.501 Y102.629 E-0.76000
G1 E-0.04000 F2100.00000
G1 Z0.600 F10800.000
G1 X138.500 Y103.885
G1 Z0.200
G1 E0.80000 F2100.00000
G1 F1200.000
G1 X137.885 Y103.270 E0.02803
G1 X137.337 Y103.270 E0.01767
G1 X138.330 Y104.263 E0.04528
G1 X138.330 Y104.812 E0.01767
G1 X136.788 Y103.270 E0.07027
G1 X136.240 Y103.270 E0.01767
G1 X138.330 Y105.360 E0.09526
G1 X138.330 Y105.908 E0.01767
G1 X135.692 Y103.270 E0.12025
G1 X135.144 Y103.270 E0.01767
G1 X138.330 Y106.456 E0.14523
G1 X138.330 Y106.730 E0.00883
G1 X138.056 Y106.730 E0.00884
G1 X134.870 Y103.544 E0.14523
G1 X134.870 Y104.092 E0.01767
G1 X137.508 Y106.730 E0.12024
G1 X136.960 Y106.730 E0.01767
G1 X134.870 Y104.640 E0.09525
G1 X134.870 Y105.189 E0.01767
G1 X136.411 Y106.730 E0.07027
G1 X135.863 Y106.730 E0.01767
G1 X134.870 Y105.737 E0.04528
G1 X134.870 Y106.285 E0.01767
G1 X135.485 Y106.900 E0.02802
; stop printing object button-Cube.stl id:0 copy 4
; printing object button-Cube.stl id:0 copy 5
G1 F8640.000
G1 X134.870 Y106.285 E-0.20077
G1 X134.870 Y105.737 E-0.12658
G1 X135.863 Y106.730 E-0.32437
G1 X136.332 Y106.730 E-0.10829
G1 E-0.04000 F2100.00000
G1 Z0.600 F10800.000
G1 X134.587 Y114.587
G1 Z0.200
G1 E0.80000 F2100.00000
G1 F1200.000
G1 X138.613 Y114.587 E0.12623
G1 X138.613 Y118.613 E0.12623
G1 X134.587 Y118.613 E0.12623
G1 X134.587 Y114.647 E0.12435
G1 X134.210 Y114.210 F10800.000
G1 F1200.000
G1 X138.990 Y114.210 E0.14987
G1 X138.990 Y118.990 E0.14987
G1 X134.210 Y118.990 E0.14987
G1 X134.210 Y114.270 E0.14799
G1 X134.596 Y114.314 F10800.000
G1 F8640.000
G1 X137.501 Y114.229 E-0.76000
G1 E-0.04000 F2100.00000
G1 Z0.600 F10800.000
G1 X138.500 Y115.485
G1 Z0.200
G1 E0.80000 F2100.00000
G1 F1200.000
G1 X137.885 Y114.870 E0.02803
G1 X137.337 Y114.870 E0.01767
G1 X138.330 Y115.863 E0.04528
G1 X138.330 Y116.412 E0.01767
G1 X136.788 Y114.870 E0.07027
G1 X136.240 Y114.870 E0.01767
G1 X138.330 Y116.960 E0.09526
G1 X138.330 Y117.508 E0.01767
G1 X135.692 Y114.870 E0.12025
G1 X135.144 Y114.870 E0.01767
G1 X138.330 Y118.056 E0.14523
G1 X138.330 Y118.330 E0.00883
G1 X138.056 Y118.330 E0.00884
G1 X134.870 Y115.144 E0.14523
G1 X134.870 Y115.692 E0.01767
G1 X137.508 Y118.330 E0.12024
G1 X136.960 Y118.330 E0.01767
G1 X134.870 Y116.240 E0.09525
G1 X134.870 Y116.789 E0.01767
G1 X136.411 Y118.330 E0.07027
G1 X135.863 Y118.330 E0.01767
G1 X134.870 Y117.337 E0.04528
G1 X134.870 Y117.885 E0.01767
G1 X135.485 Y118.500 E0.02802
; stop printing object button-Cube.stl id:0 copy 5
M106 S255
;BEFORE_LAYER_CHANGE
G92 E0.0
;0.4


G1 F8640.000
G1 X134.870 Y117.885 E-0.20077
G1 X134.870 Y117.337 E-0.12658
G1 X135.863 Y118.330 E-0.32437
G1 X136.332 Y118.330 E-0.10829
G1 E-0.04000 F2100.00000
G1 Z0.600 F10800.000
;AFTER_LAYER_CHANGE
;0.4
M104 S210 ; set temperature
G1 X128.817 Y88.040
G1 Z0.400
G1 E0.80000 F2100.00000
G1 F3000.000
G1 X129.687 Y88.594 E0.03233
G1 X141.371 Y100.276 E0.51804
G1 X141.934 Y101.120 E0.03183
G1 X142.095 Y101.632 E0.01681
G1 X142.154 Y102.165 E0.01681
G1 X142.154 Y119.416 E0.54091
G1 X142.066 Y120.090 E0.02129
G1 X141.819 Y120.717 E0.02116
G1 X141.401 Y121.293 E0.02231
G1 X140.849 Y121.742 E0.02231
G1 X140.201 Y122.035 E0.02231
G1 X139.495 Y122.153 E0.02243
G1 X110.571 Y122.154 E0.90688
G1 X109.906 Y122.065 E0.02103
G1 X109.283 Y121.819 E0.02103
G1 X108.716 Y121.409 E0.02192
G1 X108.271 Y120.870 E0.02192
G1 X107.975 Y120.232 E0.02205
G1 X107.850 Y119.544 E0.02192
G1 X107.846 Y102.151 E0.54536
G1 X107.938 Y101.495 E0.02078
G1 X108.181 Y100.883 E0.02065
G1 X108.645 Y100.260 E0.02434
G1 X120.258 Y88.647 E0.51495
G1 X120.677 Y88.305 E0.01694
G1 X121.320 Y87.990 E0.02243
G1 X122.021 Y87.852 E0.02243
G1 X127.804 Y87.846 E0.18131
G1 X128.758 Y88.029 E0.03045
G1 X128.681 Y88.392 F10800.000
G1 F3000.000
G1 X129.434 Y88.874 E0.02802
G1 X141.097 Y100.535 E0.51713
G1 X141.589 Y101.273 E0.02778
G1 X141.777 Y102.177 E0.02896
G1 X141.777 Y119.411 E0.54039
G1 X141.700 Y119.999 E0.01858
G1 X141.481 Y120.550 E0.01858
G1 X141.119 Y121.042 E0.01917
G1 X140.639 Y121.428 E0.01929
G1 X140.077 Y121.679 E0.01929
G1 X139.470 Y121.776 E0.01929
G1 X110.577 Y121.777 E0.90590
G1 X109.997 Y121.699 E0.01835
G1 X109.450 Y121.481 E0.01846
G1 X108.963 Y121.124 E0.01894
G1 X108.580 Y120.652 E0.01906
G1 X108.329 Y120.103 E0.01894
G1 X108.225 Y119.508 E0.01894
G1 X108.223 Y102.162 E0.54386
G1 X108.303 Y101.590 E0.01811
G1 X108.519 Y101.050 E0.01823
