; generated by PrusaSlicer 2.2.0+linux-x64 on 2021-03-15 at 17:44:18 UTC

; 

; external perimeters extrusion width = 0.45mm
; perimeters extrusion width = 0.45mm
; infill extrusion width = 0.45mm
; solid infill extrusion width = 0.45mm
; top infill extrusion width = 0.40mm
; first layer extrusion width = 0.42mm

M73 P0 R11
M73 Q0 S11
M201 X1000 Y1000 Z200 E5000 ; sets maximum accelerations, mm/sec^2
M203 X200 Y200 Z12 E120 ; sets maximum feedrates, mm/sec
M204 P1250 R1250 T1250 ; sets acceleration (P, T) and retract acceleration (R), mm/sec^2
M205 X8.00 Y8.00 Z0.40 E4.50 ; sets the jerk limits, mm/sec
M205 S0 T0 ; sets the minimum extruding and travel feed rate, mm/sec
M107
M862.3 P "MK3S" ; printer model check
M862.1 P0.4 ; nozzle diameter check
M115 U3.9.3 ; tell printer latest fw version
G90 ; use absolute coordinates
M83 ; extruder relative mode
M104 S215 ; set extruder temp
M140 S60 ; set bed temp
M190 S60 ; wait for bed temp
M109 S215 ; wait for extruder temp
G28 W ; home all without mesh bed level
G80 ; mesh bed leveling
G1 Y-3.0 F1000.0 ; go outside print area
G92 E0.0
G1 X60.0 E9.0 F1000.0 ; intro line
M73 Q0 S11
M73 P0 R11
G1 X100.0 E12.5 F1000.0 ; intro line
G92 E0.0
M221 S95

; Don't change E values below. Excessive value can damage the printer.
M907 E430 ; set extruder motor current
G21 ; set units to millimeters
G90 ; use absolute coordinates
M83 ; use relative distances for extrusion
M900 K0.05 ; Filament gcode LA 1.5
M900 K30 ; Filament gcode LA 1.0
;BEFORE_LAYER_CHANGE
G92 E0.0
;0.2


G1 E-0.80000 F2100.00000
G1 Z0.400 F10800.000
;AFTER_LAYER_CHANGE
;0.2
G1 X72.799 Y54.601
G1 Z0.200
G1 E0.80000 F2100.00000
M204 S1000
G1 F1200.000
G1 X73.292 Y53.847 E0.02825
G1 X73.930 Y53.215 E0.02816
G1 X74.337 Y52.927 E0.01562
G1 X74.886 Y52.704 E0.01858
G1 X75.473 Y52.623 E0.01858
G1 X174.504 Y52.623 E3.10505
G1 X175.402 Y52.801 E0.02872
G1 X176.167 Y53.305 E0.02872
G1 X176.785 Y53.930 E0.02756
G1 X177.071 Y54.333 E0.01550
G1 X177.292 Y54.871 E0.01823
G1 X177.377 Y55.450 E0.01835
G1 X177.377 Y154.515 E3.10612
G1 X177.201 Y155.399 E0.02825
G1 X176.708 Y156.153 E0.02825
G1 X176.070 Y156.785 E0.02816
G1 X175.657 Y157.077 E0.01585
G1 X175.103 Y157.299 E0.01870
G1 X174.512 Y157.377 E0.01870
G1 X75.485 Y157.377 E3.10493
G1 X74.601 Y157.201 E0.02825
G1 X73.847 Y156.708 E0.02825
G1 X73.215 Y156.070 E0.02816
G1 X72.923 Y155.657 E0.01585
G1 X72.701 Y155.103 E0.01870
G1 X72.623 Y154.512 E0.01870
G1 X72.623 Y55.485 E3.10493
G1 X72.788 Y54.660 E0.02637
; printing object rip_center-Cube.stl id:0 copy 0
G1 F8640.000
G1 X73.292 Y53.847 E-0.22098
G1 X73.930 Y53.215 E-0.20735
G1 X74.337 Y52.927 E-0.11500
G1 X74.886 Y52.704 E-0.13685
G1 X75.228 Y52.657 E-0.07982
G1 E-0.04000 F2100.00000
G1 Z0.600 F10800.000
G1 X77.213 Y57.213
G1 Z0.200
G1 E0.80000 F2100.00000
G1 F1200.000
G1 X172.787 Y57.213 E2.99666
G1 X172.787 Y152.787 E2.99666
G1 X77.213 Y152.787 E2.99666
G1 X77.213 Y57.273 E2.99478
G1 X77.590 Y57.590 F10800.000
G1 F1200.000
G1 X172.410 Y57.590 E2.97301
G1 X172.410 Y152.410 E2.97301
G1 X77.590 Y152.410 E2.97301
G1 X77.590 Y57.650 E2.97113
M73 Q9 S10
M73 P9 R10
G1 X77.486 Y57.204 F10800.000
G1 F8640.000
G1 X80.881 Y57.648 E-0.76000
G1 E-0.04000 F2100.00000
G1 Z0.600 F10800.000
G1 X75.787 Y55.826
G1 Z0.200
G1 E0.80000 F2100.00000
G1 F1200.000
G1 X75.826 Y55.787 E0.00173
G1 X174.174 Y55.787 E3.08363
G1 X174.213 Y55.826 E0.00173
G1 X174.213 Y154.174 E3.08363
G1 X174.174 Y154.213 E0.00173
G1 X75.826 Y154.213 E3.08363
G1 X75.787 Y154.174 E0.00173
G1 X75.787 Y55.886 E3.08175
G1 X75.410 Y55.670 F10800.000
G1 F1200.000
G1 X75.670 Y55.410 E0.01152
G1 X174.330 Y55.410 E3.09343
G1 X174.590 Y55.670 E0.01152
G1 X174.590 Y154.330 E3.09343
G1 X174.330 Y154.590 E0.01152
G1 X75.670 Y154.590 E3.09343
G1 X75.410 Y154.330 E0.01152
G1 X75.410 Y55.730 E3.09154
G1 X75.777 Y55.670 F10800.000
G1 F8640.000
G1 X75.670 Y55.410 E-0.09515
G1 X78.549 Y55.410 E-0.66485
G1 E-0.04000 F2100.00000
G1 Z0.600 F10800.000
G1 X171.201 Y55.900
G1 Z0.200
G1 E0.80000 F2100.00000
G1 F1200.000
G1 X172.231 Y56.930 E0.04572
G1 X171.697 Y56.930 E0.01676
G1 X170.837 Y56.070 E0.03819
G1 X170.303 Y56.070 E0.01676
G1 X171.163 Y56.930 E0.03819
G1 X170.629 Y56.930 E0.01676
G1 X169.769 Y56.070 E0.03819
G1 X169.235 Y56.070 E0.01676
G1 X170.095 Y56.930 E0.03819
G1 X169.561 Y56.930 E0.01676
G1 X168.701 Y56.070 E0.03819
G1 X168.167 Y56.070 E0.01676
G1 X169.028 Y56.930 E0.03819
G1 X168.494 Y56.930 E0.01676
G1 X167.633 Y56.070 E0.03819
G1 X167.100 Y56.070 E0.01676
G1 X167.960 Y56.930 E0.03819
G1 X167.426 Y56.930 E0.01676
G1 X166.566 Y56.070 E0.03819
G1 X166.032 Y56.070 E0.01676
G1 X166.892 Y56.930 E0.03819
G1 X166.358 Y56.930 E0.01676
G1 X165.498 Y56.070 E0.03819
G1 X164.964 Y56.070 E0.01676
G1 X165.824 Y56.930 E0.03819
G1 X165.290 Y56.930 E0.01676
G1 X164.430 Y56.070 E0.03819
G1 X163.896 Y56.070 E0.01676
G1 X164.756 Y56.930 E0.03819
G1 X164.222 Y56.930 E0.01676
G1 X163.362 Y56.070 E0.03819
G1 X162.828 Y56.070 E0.01676
G1 X163.689 Y56.930 E0.03819
G1 X163.155 Y56.930 E0.01676
G1 X162.294 Y56.070 E0.03819
G1 X161.761 Y56.070 E0.01676
G1 X162.621 Y56.930 E0.03819
G1 X162.087 Y56.930 E0.01676
G1 X161.227 Y56.070 E0.03819
G1 X160.693 Y56.070 E0.01676
G1 X161.553 Y56.930 E0.03819
G1 X161.019 Y56.930 E0.01676
G1 X160.159 Y56.070 E0.03819
G1 X159.625 Y56.070 E0.01676
G1 X160.485 Y56.930 E0.03819
G1 X159.951 Y56.930 E0.01676
G1 X159.091 Y56.070 E0.03819
G1 X158.557 Y56.070 E0.01676
G1 X159.417 Y56.930 E0.03819
G1 X158.883 Y56.930 E0.01676
G1 X158.023 Y56.070 E0.03819
G1 X157.489 Y56.070 E0.01676
G1 X158.350 Y56.930 E0.03819
G1 X157.816 Y56.930 E0.01676
G1 X156.955 Y56.070 E0.03819
G1 X156.422 Y56.070 E0.01676
G1 X157.282 Y56.930 E0.03819
G1 X156.748 Y56.930 E0.01676
G1 X155.888 Y56.070 E0.03819
G1 X155.354 Y56.070 E0.01676
G1 X156.214 Y56.930 E0.03819
G1 X155.680 Y56.930 E0.01676
G1 X154.820 Y56.070 E0.03819
G1 X154.286 Y56.070 E0.01676
G1 X155.146 Y56.930 E0.03819
G1 X154.612 Y56.930 E0.01676
G1 X153.752 Y56.070 E0.03819
G1 X153.218 Y56.070 E0.01676
G1 X154.078 Y56.930 E0.03819
G1 X153.544 Y56.930 E0.01676
G1 X152.684 Y56.070 E0.03819
G1 X152.150 Y56.070 E0.01676
G1 X153.011 Y56.930 E0.03819
G1 X152.477 Y56.930 E0.01676
G1 X151.616 Y56.070 E0.03819
G1 X151.083 Y56.070 E0.01676
G1 X151.943 Y56.930 E0.03819
G1 X151.409 Y56.930 E0.01676
G1 X150.549 Y56.070 E0.03819
G1 X150.015 Y56.070 E0.01676
G1 X150.875 Y56.930 E0.03819
G1 X150.341 Y56.930 E0.01676
G1 X149.481 Y56.070 E0.03819
G1 X148.947 Y56.070 E0.01676
G1 X149.807 Y56.930 E0.03819
G1 X149.273 Y56.930 E0.01676
G1 X148.413 Y56.070 E0.03819
G1 X147.879 Y56.070 E0.01676
G1 X148.739 Y56.930 E0.03819
G1 X148.206 Y56.930 E0.01676
G1 X147.345 Y56.070 E0.03819
G1 X146.811 Y56.070 E0.01676
G1 X147.672 Y56.930 E0.03819
G1 X147.138 Y56.930 E0.01676
G1 X146.277 Y56.070 E0.03819
G1 X145.744 Y56.070 E0.01676
G1 X146.604 Y56.930 E0.03819
G1 X146.070 Y56.930 E0.01676
G1 X145.210 Y56.070 E0.03819
G1 X144.676 Y56.070 E0.01676
G1 X145.536 Y56.930 E0.03819
G1 X145.002 Y56.930 E0.01676
G1 X144.142 Y56.070 E0.03819
G1 X143.608 Y56.070 E0.01676
G1 X144.468 Y56.930 E0.03819
G1 X143.934 Y56.930 E0.01676
G1 X143.074 Y56.070 E0.03819
G1 X142.540 Y56.070 E0.01676
G1 X143.400 Y56.930 E0.03819
G1 X142.867 Y56.930 E0.01676
G1 X142.006 Y56.070 E0.03819
G1 X141.472 Y56.070 E0.01676
G1 X142.333 Y56.930 E0.03819
G1 X141.799 Y56.930 E0.01676
G1 X140.938 Y56.070 E0.03819
G1 X140.405 Y56.070 E0.01676
G1 X141.265 Y56.930 E0.03819
G1 X140.731 Y56.930 E0.01676
G1 X139.871 Y56.070 E0.03819
G1 X139.337 Y56.070 E0.01676
G1 X140.197 Y56.930 E0.03819
G1 X139.663 Y56.930 E0.01676
G1 X138.803 Y56.070 E0.03819
G1 X138.269 Y56.070 E0.01676
G1 X139.129 Y56.930 E0.03819
G1 X138.595 Y56.930 E0.01676
G1 X137.735 Y56.070 E0.03819
G1 X137.201 Y56.070 E0.01676
G1 X138.061 Y56.930 E0.03819
G1 X137.528 Y56.930 E0.01676
G1 X136.667 Y56.070 E0.03819
G1 X136.133 Y56.070 E0.01676
G1 X136.994 Y56.930 E0.03819
G1 X136.460 Y56.930 E0.01676
G1 X135.600 Y56.070 E0.03819
G1 X135.066 Y56.070 E0.01676
G1 X135.926 Y56.930 E0.03819
G1 X135.392 Y56.930 E0.01676
G1 X134.532 Y56.070 E0.03819
G1 X133.998 Y56.070 E0.01676
G1 X134.858 Y56.930 E0.03819
G1 X134.324 Y56.930 E0.01676
G1 X133.464 Y56.070 E0.03819
G1 X132.930 Y56.070 E0.01676
G1 X133.790 Y56.930 E0.03819
G1 X133.256 Y56.930 E0.01676
G1 X132.396 Y56.070 E0.03819
G1 X131.862 Y56.070 E0.01676
G1 X132.722 Y56.930 E0.03819
G1 X132.189 Y56.930 E0.01676
G1 X131.328 Y56.070 E0.03819
G1 X130.794 Y56.070 E0.01676
G1 X131.655 Y56.930 E0.03819
G1 X131.121 Y56.930 E0.01676
G1 X130.261 Y56.070 E0.03819
G1 X129.727 Y56.070 E0.01676
G1 X130.587 Y56.930 E0.03819
G1 X130.053 Y56.930 E0.01676
G1 X129.193 Y56.070 E0.03819
G1 X128.659 Y56.070 E0.01676
G1 X129.519 Y56.930 E0.03819
G1 X128.985 Y56.930 E0.01676
G1 X128.125 Y56.070 E0.03819
G1 X127.591 Y56.070 E0.01676
G1 X128.451 Y56.930 E0.03819
G1 X127.917 Y56.930 E0.01676
G1 X127.057 Y56.070 E0.03819
G1 X126.523 Y56.070 E0.01676
G1 X127.383 Y56.930 E0.03819
G1 X126.850 Y56.930 E0.01676
G1 X125.989 Y56.070 E0.03819
G1 X125.455 Y56.070 E0.01676
G1 X126.316 Y56.930 E0.03819
G1 X125.782 Y56.930 E0.01676
G1 X124.922 Y56.070 E0.03819
G1 X124.388 Y56.070 E0.01676
G1 X125.248 Y56.930 E0.03819
G1 X124.714 Y56.930 E0.01676
G1 X123.854 Y56.070 E0.03819
G1 X123.320 Y56.070 E0.01676
G1 X124.180 Y56.930 E0.03819
G1 X123.646 Y56.930 E0.01676
G1 X122.786 Y56.070 E0.03819
G1 X122.252 Y56.070 E0.01676
G1 X123.112 Y56.930 E0.03819
G1 X122.578 Y56.930 E0.01676
G1 X121.718 Y56.070 E0.03819
G1 X121.184 Y56.070 E0.01676
G1 X122.045 Y56.930 E0.03819
G1 X121.511 Y56.930 E0.01676
G1 X120.650 Y56.070 E0.03819
G1 X120.116 Y56.070 E0.01676
G1 X120.977 Y56.930 E0.03819
G1 X120.443 Y56.930 E0.01676
G1 X119.583 Y56.070 E0.03819
G1 X119.049 Y56.070 E0.01676
G1 X119.909 Y56.930 E0.03819
G1 X119.375 Y56.930 E0.01676
G1 X118.515 Y56.070 E0.03819
G1 X117.981 Y56.070 E0.01676
G1 X118.841 Y56.930 E0.03819
G1 X118.307 Y56.930 E0.01676
G1 X117.447 Y56.070 E0.03819
G1 X116.913 Y56.070 E0.01676
G1 X117.773 Y56.930 E0.03819
G1 X117.239 Y56.930 E0.01676
G1 X116.379 Y56.070 E0.03819
G1 X115.845 Y56.070 E0.01676
G1 X116.706 Y56.930 E0.03819
G1 X116.172 Y56.930 E0.01676
G1 X115.311 Y56.070 E0.03819
G1 X114.777 Y56.070 E0.01676
G1 X115.638 Y56.930 E0.03819
G1 X115.104 Y56.930 E0.01676
G1 X114.244 Y56.070 E0.03819
G1 X113.710 Y56.070 E0.01676
G1 X114.570 Y56.930 E0.03819
G1 X114.036 Y56.930 E0.01676
G1 X113.176 Y56.070 E0.03819
G1 X112.642 Y56.070 E0.01676
G1 X113.502 Y56.930 E0.03819
G1 X112.968 Y56.930 E0.01676
G1 X112.108 Y56.070 E0.03819
G1 X111.574 Y56.070 E0.01676
G1 X112.434 Y56.930 E0.03819
G1 X111.900 Y56.930 E0.01676
G1 X111.040 Y56.070 E0.03819
G1 X110.506 Y56.070 E0.01676
G1 X111.367 Y56.930 E0.03819
G1 X110.833 Y56.930 E0.01676
G1 X109.972 Y56.070 E0.03819
G1 X109.439 Y56.070 E0.01676
G1 X110.299 Y56.930 E0.03819
G1 X109.765 Y56.930 E0.01676
G1 X108.905 Y56.070 E0.03819
G1 X108.371 Y56.070 E0.01676
G1 X109.231 Y56.930 E0.03819
G1 X108.697 Y56.930 E0.01676
G1 X107.837 Y56.070 E0.03819
G1 X107.303 Y56.070 E0.01676
G1 X108.163 Y56.930 E0.03819
G1 X107.629 Y56.930 E0.01676
G1 X106.769 Y56.070 E0.03819
G1 X106.235 Y56.070 E0.01676
G1 X107.095 Y56.930 E0.03819
G1 X106.561 Y56.930 E0.01676
G1 X105.701 Y56.070 E0.03819
G1 X105.167 Y56.070 E0.01676
G1 X106.028 Y56.930 E0.03819
G1 X105.494 Y56.930 E0.01676
G1 X104.633 Y56.070 E0.03819
G1 X104.100 Y56.070 E0.01676
G1 X104.960 Y56.930 E0.03819
G1 X104.426 Y56.930 E0.01676
G1 X103.566 Y56.070 E0.03819
G1 X103.032 Y56.070 E0.01676
G1 X103.892 Y56.930 E0.03819
G1 X103.358 Y56.930 E0.01676
G1 X102.498 Y56.070 E0.03819
G1 X101.964 Y56.070 E0.01676
G1 X102.824 Y56.930 E0.03819
G1 X102.290 Y56.930 E0.01676
G1 X101.430 Y56.070 E0.03819
G1 X100.896 Y56.070 E0.01676
G1 X101.756 Y56.930 E0.03819
G1 X101.222 Y56.930 E0.01676
G1 X100.362 Y56.070 E0.03819
G1 X99.828 Y56.070 E0.01676
G1 X100.689 Y56.930 E0.03819
G1 X100.155 Y56.930 E0.01676
G1 X99.294 Y56.070 E0.03819
G1 X98.761 Y56.070 E0.01676
G1 X99.621 Y56.930 E0.03819
G1 X99.087 Y56.930 E0.01676
G1 X98.227 Y56.070 E0.03819
G1 X97.693 Y56.070 E0.01676
G1 X98.553 Y56.930 E0.03819
G1 X98.019 Y56.930 E0.01676
G1 X97.159 Y56.070 E0.03819
G1 X96.625 Y56.070 E0.01676
G1 X97.485 Y56.930 E0.03819
G1 X96.951 Y56.930 E0.01676
G1 X96.091 Y56.070 E0.03819
G1 X95.557 Y56.070 E0.01676
G1 X96.417 Y56.930 E0.03819
G1 X95.883 Y56.930 E0.01676
G1 X95.023 Y56.070 E0.03819
G1 X94.489 Y56.070 E0.01676
G1 X95.350 Y56.930 E0.03819
G1 X94.816 Y56.930 E0.01676
G1 X93.955 Y56.070 E0.03819
G1 X93.422 Y56.070 E0.01676
G1 X94.282 Y56.930 E0.03819
G1 X93.748 Y56.930 E0.01676
G1 X92.888 Y56.070 E0.03819
G1 X92.354 Y56.070 E0.01676
G1 X93.214 Y56.930 E0.03819
G1 X92.680 Y56.930 E0.01676
G1 X91.820 Y56.070 E0.03819
G1 X91.286 Y56.070 E0.01676
G1 X92.146 Y56.930 E0.03819
G1 X91.612 Y56.930 E0.01676
G1 X90.752 Y56.070 E0.03819
G1 X90.218 Y56.070 E0.01676
G1 X91.078 Y56.930 E0.03819
G1 X90.545 Y56.930 E0.01676
G1 X89.684 Y56.070 E0.03819
G1 X89.150 Y56.070 E0.01676
G1 X90.011 Y56.930 E0.03819
G1 X89.477 Y56.930 E0.01676
G1 X88.616 Y56.070 E0.03819
G1 X88.083 Y56.070 E0.01676
G1 X88.943 Y56.930 E0.03819
G1 X88.409 Y56.930 E0.01676
G1 X87.549 Y56.070 E0.03819
G1 X87.015 Y56.070 E0.01676
G1 X87.875 Y56.930 E0.03819
G1 X87.341 Y56.930 E0.01676
G1 X86.481 Y56.070 E0.03819
G1 X85.947 Y56.070 E0.01676
G1 X86.807 Y56.930 E0.03819
G1 X86.273 Y56.930 E0.01676
G1 X85.413 Y56.070 E0.03819
G1 X84.879 Y56.070 E0.01676
G1 X85.739 Y56.930 E0.03819
G1 X85.206 Y56.930 E0.01676
G1 X84.345 Y56.070 E0.03819
G1 X83.811 Y56.070 E0.01676
G1 X84.672 Y56.930 E0.03819
G1 X84.138 Y56.930 E0.01676
G1 X83.277 Y56.070 E0.03819
G1 X82.744 Y56.070 E0.01676
G1 X83.604 Y56.930 E0.03819
G1 X83.070 Y56.930 E0.01676
G1 X82.210 Y56.070 E0.03819
G1 X81.676 Y56.070 E0.01676
G1 X82.536 Y56.930 E0.03819
G1 X82.002 Y56.930 E0.01676
G1 X81.142 Y56.070 E0.03819
G1 X80.608 Y56.070 E0.01676
G1 X81.468 Y56.930 E0.03819
G1 X80.934 Y56.930 E0.01676
G1 X80.074 Y56.070 E0.03819
G1 X79.540 Y56.070 E0.01676
G1 X80.400 Y56.930 E0.03819
G1 X79.867 Y56.930 E0.01676
G1 X79.006 Y56.070 E0.03819
G1 X78.472 Y56.070 E0.01676
G1 X79.333 Y56.930 E0.03819
G1 X78.799 Y56.930 E0.01676
G1 X77.939 Y56.070 E0.03819
G1 X77.405 Y56.070 E0.01676
G1 X78.265 Y56.930 E0.03819
G1 X77.731 Y56.930 E0.01676
G1 X76.871 Y56.070 E0.03819
G1 X76.337 Y56.070 E0.01676
G1 X77.197 Y56.930 E0.03819
G1 X76.930 Y56.930 E0.00838
G1 X76.930 Y57.197 E0.00838
G1 X76.070 Y56.337 E0.03819
G1 X76.070 Y56.871 E0.01676
G1 X76.930 Y57.731 E0.03819
G1 X76.930 Y58.265 E0.01676
G1 X76.070 Y57.405 E0.03819
G1 X76.070 Y57.939 E0.01676
G1 X76.930 Y58.799 E0.03819
G1 X76.930 Y59.333 E0.01676
G1 X76.070 Y58.472 E0.03819
G1 X76.070 Y59.006 E0.01676
G1 X76.930 Y59.867 E0.03819
G1 X76.930 Y60.400 E0.01676
G1 X76.070 Y59.540 E0.03819
G1 X76.070 Y60.074 E0.01676
G1 X76.930 Y60.934 E0.03819
G1 X76.930 Y61.468 E0.01676
G1 X76.070 Y60.608 E0.03819
G1 X76.070 Y61.142 E0.01676
G1 X76.930 Y62.002 E0.03819
M73 Q18 S9
G1 X76.930 Y62.536 E0.01676
G1 X76.070 Y61.676 E0.03819
G1 X76.070 Y62.210 E0.01676
G1 X76.930 Y63.070 E0.03819
G1 X76.930 Y63.604 E0.01676
G1 X76.070 Y62.744 E0.03819
G1 X76.070 Y63.278 E0.01676
G1 X76.930 Y64.138 E0.03819
M73 P18 R9
G1 X76.930 Y64.672 E0.01676
G1 X76.070 Y63.811 E0.03819
G1 X76.070 Y64.345 E0.01676
G1 X76.930 Y65.206 E0.03819
G1 X76.930 Y65.739 E0.01676
G1 X76.070 Y64.879 E0.03819
G1 X76.070 Y65.413 E0.01676
G1 X76.930 Y66.273 E0.03819
G1 X76.930 Y66.807 E0.01676
G1 X76.070 Y65.947 E0.03819
G1 X76.070 Y66.481 E0.01676
G1 X76.930 Y67.341 E0.03819
G1 X76.930 Y67.875 E0.01676
G1 X76.070 Y67.015 E0.03819
G1 X76.070 Y67.549 E0.01676
G1 X76.930 Y68.409 E0.03819
G1 X76.930 Y68.943 E0.01676
G1 X76.070 Y68.083 E0.03819
G1 X76.070 Y68.616 E0.01676
G1 X76.930 Y69.477 E0.03819
G1 X76.930 Y70.011 E0.01676
G1 X76.070 Y69.150 E0.03819
G1 X76.070 Y69.684 E0.01676
G1 X76.930 Y70.545 E0.03819
G1 X76.930 Y71.078 E0.01676
G1 X76.070 Y70.218 E0.03819
G1 X76.070 Y70.752 E0.01676
G1 X76.930 Y71.612 E0.03819
G1 X76.930 Y72.146 E0.01676
G1 X76.070 Y71.286 E0.03819
G1 X76.070 Y71.820 E0.01676
