; generated by PrusaSlicer 2.2.0+linux-x64 on 2021-03-15 at 17:45:14 UTC

; 

; external perimeters extrusion width = 0.45mm
; perimeters extrusion width = 0.45mm
; infill extrusion width = 0.45mm
; solid infill extrusion width = 0.45mm
; top infill extrusion width = 0.40mm
; first layer extrusion width = 0.42mm

M73 P0 R74
M73 Q0 S74
M201 X1000 Y1000 Z200 E5000 ; sets maximum accelerations, mm/sec^2
M203 X200 Y200 Z12 E120 ; sets maximum feedrates, mm/sec
M204 P1250 R1250 T1250 ; sets acceleration (P, T) and retract acceleration (R), mm/sec^2
M205 X8.00 Y8.00 Z0.40 E4.50 ; sets the jerk limits, mm/sec
M205 S0 T0 ; sets the minimum extruding and travel feed rate, mm/sec
M107
M862.3 P "MK3S" ; printer model check
M862.1 P0.4 ; nozzle diameter check
M115 U3.9.3 ; tell printer latest fw version
G90 ; use absolute coordinates
M83 ; extruder relative mode
M104 S215 ; set extruder temp
M140 S60 ; set bed temp
M190 S60 ; wait for bed temp
M109 S215 ; wait for extruder temp
G28 W ; home all without mesh bed level
G80 ; mesh bed leveling
G1 Y-3.0 F1000.0 ; go outside print area
G92 E0.0
G1 X60.0 E9.0 F1000.0 ; intro line
M73 Q0 S74
M73 P0 R74
G1 X100.0 E12.5 F1000.0 ; intro line
G92 E0.0
M221 S95

; Don't change E values below. Excessive value can damage the printer.
M907 E430 ; set extruder motor current
G21 ; set units to millimeters
G90 ; use absolute coordinates
M83 ; use relative distances for extrusion
M900 K0.05 ; Filament gcode LA 1.5
M900 K30 ; Filament gcode LA 1.0
;BEFORE_LAYER_CHANGE
G92 E0.0
;0.2


G1 E-0.80000 F2100.00000
G1 Z0.400 F10800.000
;AFTER_LAYER_CHANGE
;0.2
G1 X80.287 Y60.005
G1 Z0.200
G1 E0.80000 F2100.00000
M204 S1000
G1 F1200.000
G1 X81.180 Y59.823 E0.02860
G1 X168.804 Y59.823 E2.74737
G1 X169.702 Y60.001 E0.02872
G1 X170.464 Y60.503 E0.02860
G1 X171.792 Y61.903 E0.06051
G1 X172.069 Y62.491 E0.02036
G1 X172.176 Y63.131 E0.02036
G1 X172.177 Y147.819 E2.65534
G1 X171.990 Y148.723 E0.02896
G1 X171.473 Y149.489 E0.02896
G1 X170.710 Y149.996 E0.02872
G1 X169.816 Y150.177 E0.02860
G1 X80.200 Y150.177 E2.80986
G1 X79.287 Y149.995 E0.02919
G1 X78.511 Y149.473 E0.02931
G1 X78.006 Y148.714 E0.02860
G1 X77.823 Y147.820 E0.02860
G1 X77.823 Y63.173 E2.65404
G1 X77.922 Y62.520 E0.02071
G1 X78.197 Y61.920 E0.02071
G1 X79.525 Y60.514 E0.06062
G1 X80.237 Y60.039 E0.02684
; printing object tray_ice40-Cube.stl id:0 copy 0
G1 F8640.000
G1 X81.180 Y59.823 E-0.22354
G1 X83.504 Y59.823 E-0.53646
G1 E-0.04000 F2100.00000
G1 Z0.600 F10800.000
G1 X81.526 Y62.987
G1 Z0.200
G1 E0.80000 F2100.00000
G1 F1200.000
G1 X168.474 Y62.987 E2.72619
G1 X169.013 Y63.526 E0.02390
G1 X169.013 Y147.013 E2.61767
G1 X80.987 Y147.013 E2.75999
G1 X80.987 Y63.526 E2.61767
G1 X81.484 Y63.030 E0.02202
G1 X81.370 Y62.610 F10800.000
G1 F1200.000
G1 X168.630 Y62.610 E2.73599
G1 X169.390 Y63.370 E0.03369
G1 X169.390 Y147.390 E2.63439
G1 X80.610 Y147.390 E2.78363
G1 X80.610 Y63.370 E2.63439
G1 X81.327 Y62.652 E0.03181
G1 X81.716 Y62.811 F10800.000
G1 F8640.000
G1 X84.619 Y62.651 E-0.76000
G1 E-0.04000 F2100.00000
G1 Z0.600 F10800.000
G1 X168.900 Y63.813
G1 Z0.200
G1 E0.80000 F2100.00000
G1 F1200.000
G1 X168.357 Y63.270 E0.02408
G1 X167.823 Y63.270 E0.01672
G1 X168.730 Y64.177 E0.04021
G1 X168.730 Y64.710 E0.01672
G1 X167.290 Y63.270 E0.06385
G1 X166.757 Y63.270 E0.01672
G1 X168.730 Y65.243 E0.08750
G1 X168.730 Y65.776 E0.01672
G1 X166.224 Y63.270 E0.11115
G1 X165.690 Y63.270 E0.01672
G1 X168.730 Y66.310 E0.13480
G1 X168.730 Y66.843 E0.01672
G1 X165.157 Y63.270 E0.15845
G1 X164.624 Y63.270 E0.01672
G1 X168.730 Y67.376 E0.18210
G1 X168.730 Y67.910 E0.01672
G1 X164.090 Y63.270 E0.20575
G1 X163.557 Y63.270 E0.01672
G1 X168.730 Y68.443 E0.22940
M73 Q1 S73
G1 X168.730 Y68.976 E0.01672
G1 X163.024 Y63.270 E0.25305
M73 P1 R73
G1 X162.490 Y63.270 E0.01672
G1 X168.730 Y69.510 E0.27670
G1 X168.730 Y70.043 E0.01672
G1 X161.957 Y63.270 E0.30035
G1 X161.424 Y63.270 E0.01672
G1 X168.730 Y70.576 E0.32399
G1 X168.730 Y71.110 E0.01672
G1 X160.890 Y63.270 E0.34764
G1 X160.357 Y63.270 E0.01672
G1 X168.730 Y71.643 E0.37129
G1 X168.730 Y72.176 E0.01672
G1 X159.824 Y63.270 E0.39494
G1 X159.291 Y63.270 E0.01672
G1 X168.730 Y72.709 E0.41859
G1 X168.730 Y73.243 E0.01672
G1 X158.757 Y63.270 E0.44224
G1 X158.224 Y63.270 E0.01672
G1 X168.730 Y73.776 E0.46589
G1 X168.730 Y74.309 E0.01672
G1 X157.691 Y63.270 E0.48954
G1 X157.157 Y63.270 E0.01672
G1 X168.730 Y74.843 E0.51319
G1 X168.730 Y75.376 E0.01672
G1 X156.624 Y63.270 E0.53684
G1 X156.091 Y63.270 E0.01672
G1 X168.730 Y75.909 E0.56049
G1 X168.730 Y76.443 E0.01672
G1 X155.557 Y63.270 E0.58413
G1 X155.024 Y63.270 E0.01672
G1 X168.730 Y76.976 E0.60778
G1 X168.730 Y77.509 E0.01672
G1 X154.491 Y63.270 E0.63143
G1 X153.958 Y63.270 E0.01672
G1 X168.730 Y78.042 E0.65508
G1 X168.730 Y78.576 E0.01672
G1 X153.424 Y63.270 E0.67873
G1 X152.891 Y63.270 E0.01672
G1 X168.730 Y79.109 E0.70238
G1 X168.730 Y79.642 E0.01672
G1 X152.358 Y63.270 E0.72603
G1 X151.824 Y63.270 E0.01672
G1 X168.730 Y80.176 E0.74968
G1 X168.730 Y80.709 E0.01672
G1 X151.291 Y63.270 E0.77333
G1 X150.758 Y63.270 E0.01672
G1 X168.730 Y81.242 E0.79698
G1 X168.730 Y81.776 E0.01672
G1 X150.224 Y63.270 E0.82063
G1 X149.691 Y63.270 E0.01672
G1 X168.730 Y82.309 E0.84427
G1 X168.730 Y82.842 E0.01672
G1 X149.158 Y63.270 E0.86792
G1 X148.624 Y63.270 E0.01672
G1 X168.730 Y83.376 E0.89157
G1 X168.730 Y83.909 E0.01672
G1 X148.091 Y63.270 E0.91522
G1 X147.558 Y63.270 E0.01672
G1 X168.730 Y84.442 E0.93887
G1 X168.730 Y84.975 E0.01672
G1 X147.025 Y63.270 E0.96252
G1 X146.491 Y63.270 E0.01672
G1 X168.730 Y85.509 E0.98617
G1 X168.730 Y86.042 E0.01672
G1 X145.958 Y63.270 E1.00982
G1 X145.425 Y63.270 E0.01672
G1 X168.730 Y86.575 E1.03347
G1 X168.730 Y87.109 E0.01672
G1 X144.891 Y63.270 E1.05712
G1 X144.358 Y63.270 E0.01672
G1 X168.730 Y87.642 E1.08076
G1 X168.730 Y88.175 E0.01672
G1 X143.825 Y63.270 E1.10441
G1 X143.291 Y63.270 E0.01672
G1 X168.730 Y88.709 E1.12806
G1 X168.730 Y89.242 E0.01672
G1 X142.758 Y63.270 E1.15171
G1 X142.225 Y63.270 E0.01672
G1 X168.730 Y89.775 E1.17536
G1 X168.730 Y90.308 E0.01672
G1 X141.692 Y63.270 E1.19901
G1 X141.158 Y63.270 E0.01672
G1 X168.730 Y90.842 E1.22266
G1 X168.730 Y91.375 E0.01672
G1 X140.625 Y63.270 E1.24631
G1 X140.092 Y63.270 E0.01672
G1 X168.730 Y91.908 E1.26996
G1 X168.730 Y92.442 E0.01672
G1 X139.558 Y63.270 E1.29361
G1 X139.025 Y63.270 E0.01672
G1 X168.730 Y92.975 E1.31726
G1 X168.730 Y93.508 E0.01672
G1 X138.492 Y63.270 E1.34090
M73 Q2 S72
M73 P2 R72
G1 X137.958 Y63.270 E0.01672
G1 X168.730 Y94.042 E1.36455
G1 X168.730 Y94.575 E0.01672
G1 X137.425 Y63.270 E1.38820
G1 X136.892 Y63.270 E0.01672
G1 X168.730 Y95.108 E1.41185
G1 X168.730 Y95.641 E0.01672
G1 X136.359 Y63.270 E1.43550
G1 X135.825 Y63.270 E0.01672
G1 X168.730 Y96.175 E1.45915
G1 X168.730 Y96.708 E0.01672
G1 X135.292 Y63.270 E1.48280
G1 X134.759 Y63.270 E0.01672
G1 X168.730 Y97.241 E1.50645
G1 X168.730 Y97.775 E0.01672
G1 X134.225 Y63.270 E1.53010
G1 X133.692 Y63.270 E0.01672
G1 X168.730 Y98.308 E1.55375
G1 X168.730 Y98.841 E0.01672
G1 X133.159 Y63.270 E1.57740
G1 X132.625 Y63.270 E0.01672
G1 X168.730 Y99.375 E1.60104
G1 X168.730 Y99.908 E0.01672
G1 X132.092 Y63.270 E1.62469
G1 X131.559 Y63.270 E0.01672
G1 X168.730 Y100.441 E1.64834
G1 X168.730 Y100.975 E0.01672
G1 X131.025 Y63.270 E1.67199
G1 X130.492 Y63.270 E0.01672
G1 X168.730 Y101.508 E1.69564
G1 X168.730 Y102.041 E0.01672
G1 X129.959 Y63.270 E1.71929
G1 X129.426 Y63.270 E0.01672
G1 X168.730 Y102.574 E1.74294
G1 X168.730 Y103.108 E0.01672
G1 X128.892 Y63.270 E1.76659
G1 X128.359 Y63.270 E0.01672
G1 X168.730 Y103.641 E1.79024
G1 X168.730 Y104.174 E0.01672
G1 X127.826 Y63.270 E1.81389
G1 X127.292 Y63.270 E0.01672
G1 X168.730 Y104.708 E1.83753
G1 X168.730 Y105.241 E0.01672
G1 X126.759 Y63.270 E1.86118
G1 X126.226 Y63.270 E0.01672
G1 X168.730 Y105.774 E1.88483
M73 Q4 S71
M73 P4 R71
G1 X168.730 Y106.308 E0.01672
G1 X125.692 Y63.270 E1.90848
G1 X125.159 Y63.270 E0.01672
G1 X168.730 Y106.841 E1.93213
G1 X168.730 Y107.374 E0.01672
G1 X124.626 Y63.270 E1.95578
G1 X124.093 Y63.270 E0.01672
G1 X168.730 Y107.907 E1.97943
G1 X168.730 Y108.441 E0.01672
G1 X123.559 Y63.270 E2.00308
G1 X123.026 Y63.270 E0.01672
G1 X168.730 Y108.974 E2.02673
G1 X168.730 Y109.507 E0.01672
G1 X122.493 Y63.270 E2.05038
G1 X121.959 Y63.270 E0.01672
G1 X168.730 Y110.041 E2.07403
G1 X168.730 Y110.574 E0.01672
G1 X121.426 Y63.270 E2.09767
G1 X120.893 Y63.270 E0.01672
G1 X168.730 Y111.107 E2.12132
G1 X168.730 Y111.641 E0.01672
G1 X120.359 Y63.270 E2.14497
G1 X119.826 Y63.270 E0.01672
G1 X168.730 Y112.174 E2.16862
G1 X168.730 Y112.707 E0.01672
G1 X119.293 Y63.270 E2.19227
G1 X118.759 Y63.270 E0.01672
G1 X168.730 Y113.241 E2.21592
G1 X168.730 Y113.774 E0.01672
G1 X118.226 Y63.270 E2.23957
G1 X117.693 Y63.270 E0.01672
G1 X168.730 Y114.307 E2.26322
G1 X168.730 Y114.840 E0.01672
G1 X117.160 Y63.270 E2.28687
G1 X116.626 Y63.270 E0.01672
G1 X168.730 Y115.374 E2.31052
M73 Q5 S70
M73 P5 R70
G1 X168.730 Y115.907 E0.01672
G1 X116.093 Y63.270 E2.33417
G1 X115.560 Y63.270 E0.01672
G1 X168.730 Y116.440 E2.35781
G1 X168.730 Y116.974 E0.01672
G1 X115.026 Y63.270 E2.38146
G1 X114.493 Y63.270 E0.01672
G1 X168.730 Y117.507 E2.40511
G1 X168.730 Y118.040 E0.01672
G1 X113.960 Y63.270 E2.42876
G1 X113.426 Y63.270 E0.01672
G1 X168.730 Y118.574 E2.45241
G1 X168.730 Y119.107 E0.01672
G1 X112.893 Y63.270 E2.47606
G1 X112.360 Y63.270 E0.01672
G1 X168.730 Y119.640 E2.49971
G1 X168.730 Y120.173 E0.01672
G1 X111.827 Y63.270 E2.52336
G1 X111.293 Y63.270 E0.01672
G1 X168.730 Y120.707 E2.54701
G1 X168.730 Y121.240 E0.01672
G1 X110.760 Y63.270 E2.57066
G1 X110.227 Y63.270 E0.01672
G1 X168.730 Y121.773 E2.59431
G1 X168.730 Y122.307 E0.01672
G1 X109.693 Y63.270 E2.61795
G1 X109.160 Y63.270 E0.01672
G1 X168.730 Y122.840 E2.64160
G1 X168.730 Y123.373 E0.01672
G1 X108.627 Y63.270 E2.66525
M73 Q6 S69
M73 P6 R69
G1 X108.093 Y63.270 E0.01672
G1 X168.730 Y123.907 E2.68890
G1 X168.730 Y124.440 E0.01672
G1 X107.560 Y63.270 E2.71255
G1 X107.027 Y63.270 E0.01672
G1 X168.730 Y124.973 E2.73620
G1 X168.730 Y125.507 E0.01672
G1 X106.493 Y63.270 E2.75985
G1 X105.960 Y63.270 E0.01672
G1 X168.730 Y126.040 E2.78350
G1 X168.730 Y126.573 E0.01672
G1 X105.427 Y63.270 E2.80715
G1 X104.894 Y63.270 E0.01672
G1 X168.730 Y127.106 E2.83080
G1 X168.730 Y127.640 E0.01672
G1 X104.360 Y63.270 E2.85444
G1 X103.827 Y63.270 E0.01672
G1 X168.730 Y128.173 E2.87809
G1 X168.730 Y128.706 E0.01672
G1 X103.294 Y63.270 E2.90174
G1 X102.760 Y63.270 E0.01672
G1 X168.730 Y129.240 E2.92539
G1 X168.730 Y129.773 E0.01672
G1 X102.227 Y63.270 E2.94904
G1 X101.694 Y63.270 E0.01672
G1 X168.730 Y130.306 E2.97269
G1 X168.730 Y130.840 E0.01672
G1 X101.160 Y63.270 E2.99634
M73 Q8 S68
M73 P8 R68
G1 X100.627 Y63.270 E0.01672
G1 X168.730 Y131.373 E3.01999
G1 X168.730 Y131.906 E0.01672
G1 X100.094 Y63.270 E3.04364
G1 X99.561 Y63.270 E0.01672
G1 X168.730 Y132.439 E3.06729
G1 X168.730 Y132.973 E0.01672
G1 X99.027 Y63.270 E3.09094
G1 X98.494 Y63.270 E0.01672
G1 X168.730 Y133.506 E3.11458
G1 X168.730 Y134.039 E0.01672
G1 X97.961 Y63.270 E3.13823
G1 X97.427 Y63.270 E0.01672
G1 X168.730 Y134.573 E3.16188
G1 X168.730 Y135.106 E0.01672
G1 X96.894 Y63.270 E3.18553
G1 X96.361 Y63.270 E0.01672
G1 X168.730 Y135.639 E3.20918
G1 X168.730 Y136.173 E0.01672
G1 X95.827 Y63.270 E3.23283
G1 X95.294 Y63.270 E0.01672
G1 X168.730 Y136.706 E3.25648
G1 X168.730 Y137.239 E0.01672
G1 X94.761 Y63.270 E3.28013
M73 Q9 S67
M73 P9 R67
G1 X94.227 Y63.270 E0.01672
G1 X168.730 Y137.773 E3.30378
G1 X168.730 Y138.306 E0.01672
G1 X93.694 Y63.270 E3.32743
G1 X93.161 Y63.270 E0.01672
G1 X168.730 Y138.839 E3.35108
G1 X168.730 Y139.372 E0.01672
G1 X92.628 Y63.270 E3.37472
G1 X92.094 Y63.270 E0.01672
G1 X168.730 Y139.906 E3.39837
G1 X168.730 Y140.439 E0.01672
G1 X91.561 Y63.270 E3.42202
G1 X91.028 Y63.270 E0.01672
G1 X168.730 Y140.972 E3.44567
G1 X168.730 Y141.506 E0.01672
G1 X90.494 Y63.270 E3.46932
G1 X89.961 Y63.270 E0.01672
G1 X168.730 Y142.039 E3.49297
G1 X168.730 Y142.572 E0.01672
G1 X89.428 Y63.270 E3.51662
G1 X88.894 Y63.270 E0.01672
G1 X168.730 Y143.106 E3.54027
M73 Q11 S66
M73 P11 R66
G1 X168.730 Y143.639 E0.01672
G1 X88.361 Y63.270 E3.56392
G1 X87.828 Y63.270 E0.01672
G1 X168.730 Y144.172 E3.58757
G1 X168.730 Y144.705 E0.01672
G1 X87.295 Y63.270 E3.61121
G1 X86.761 Y63.270 E0.01672
G1 X168.730 Y145.239 E3.63486
G1 X168.730 Y145.772 E0.01672
G1 X86.228 Y63.270 E3.65851
G1 X85.695 Y63.270 E0.01672
G1 X168.730 Y146.305 E3.68216
G1 X168.730 Y146.730 E0.01332
G1 X168.622 Y146.730 E0.00340
G1 X85.161 Y63.270 E3.70100
G1 X84.628 Y63.270 E0.01672
G1 X168.088 Y146.730 E3.70100
G1 X167.555 Y146.730 E0.01672
G1 X84.095 Y63.270 E3.70100
G1 X83.561 Y63.270 E0.01672
G1 X167.022 Y146.730 E3.70100
G1 X166.488 Y146.730 E0.01672
G1 X83.028 Y63.270 E3.70100
M73 Q12 S65
M73 P12 R65
G1 X82.495 Y63.270 E0.01672
G1 X165.955 Y146.730 E3.70100
G1 X165.422 Y146.730 E0.01672
G1 X81.961 Y63.270 E3.70100
G1 X81.643 Y63.270 E0.00998
G1 X81.536 Y63.377 E0.00477
G1 X164.888 Y146.730 E3.69623
G1 X164.355 Y146.730 E0.01672
G1 X81.270 Y63.645 E3.68437
G1 X81.270 Y64.178 E0.01672
G1 X163.822 Y146.730 E3.66072
G1 X163.289 Y146.730 E0.01672
G1 X81.270 Y64.711 E3.63707
G1 X81.270 Y65.245 E0.01672
G1 X162.755 Y146.730 E3.61342
G1 X162.222 Y146.730 E0.01672
G1 X81.270 Y65.778 E3.58977
G1 X81.270 Y66.311 E0.01672
G1 X161.689 Y146.730 E3.56612
G1 X161.155 Y146.730 E0.01672
G1 X81.270 Y66.845 E3.54247
G1 X81.270 Y67.378 E0.01672
G1 X160.622 Y146.730 E3.51882
M73 Q13 S64
M73 P13 R64
G1 X160.089 Y146.730 E0.01672
G1 X81.270 Y67.911 E3.49517
G1 X81.270 Y68.445 E0.01672
G1 X159.555 Y146.730 E3.47153
G1 X159.022 Y146.730 E0.01672
G1 X81.270 Y68.978 E3.44788
G1 X81.270 Y69.511 E0.01672
G1 X158.489 Y146.730 E3.42423
G1 X157.955 Y146.730 E0.01672
G1 X81.270 Y70.045 E3.40058
G1 X81.270 Y70.578 E0.01672
G1 X157.422 Y146.730 E3.37693
G1 X156.889 Y146.730 E0.01672
G1 X81.270 Y71.111 E3.35328
G1 X81.270 Y71.644 E0.01672
G1 X156.356 Y146.730 E3.32963
G1 X155.822 Y146.730 E0.01672
G1 X81.270 Y72.178 E3.30598
G1 X81.270 Y72.711 E0.01672
G1 X155.289 Y146.730 E3.28233
G1 X154.756 Y146.730 E0.01672
G1 X81.270 Y73.244 E3.25868
G1 X81.270 Y73.778 E0.01672
G1 X154.222 Y146.730 E3.23503
M73 Q15 S63
M73 P15 R63
G1 X153.689 Y146.730 E0.01672
G1 X81.270 Y74.311 E3.21139
G1 X81.270 Y74.844 E0.01672
G1 X153.156 Y146.730 E3.18774
G1 X152.622 Y146.730 E0.01672
G1 X81.270 Y75.378 E3.16409
G1 X81.270 Y75.911 E0.01672
G1 X152.089 Y146.730 E3.14044
G1 X151.556 Y146.730 E0.01672
G1 X81.270 Y76.444 E3.11679
G1 X81.270 Y76.977 E0.01672
G1 X151.023 Y146.730 E3.09314
G1 X150.489 Y146.730 E0.01672
G1 X81.270 Y77.511 E3.06949
G1 X81.270 Y78.044 E0.01672
G1 X149.956 Y146.730 E3.04584
G1 X149.423 Y146.730 E0.01672
G1 X81.270 Y78.577 E3.02219
G1 X81.270 Y79.111 E0.01672
G1 X148.889 Y146.730 E2.99854
G1 X148.356 Y146.730 E0.01672
G1 X81.270 Y79.644 E2.97489
G1 X81.270 Y80.177 E0.01672
G1 X147.823 Y146.730 E2.95125
G1 X147.289 Y146.730 E0.01672
G1 X81.270 Y80.711 E2.92760
M73 Q16 S62
M73 P16 R61
G1 X81.270 Y81.244 E0.01672
G1 X146.756 Y146.730 E2.90395
G1 X146.223 Y146.730 E0.01672
G1 X81.270 Y81.777 E2.88030
G1 X81.270 Y82.311 E0.01672
G1 X145.689 Y146.730 E2.85665
G1 X145.156 Y146.730 E0.01672
G1 X81.270 Y82.844 E2.83300
G1 X81.270 Y83.377 E0.01672
G1 X144.623 Y146.730 E2.80935
G1 X144.090 Y146.730 E0.01672
G1 X81.270 Y83.910 E2.78570
G1 X81.270 Y84.444 E0.01672
G1 X143.556 Y146.730 E2.76205
G1 X143.023 Y146.730 E0.01672
G1 X81.270 Y84.977 E2.73840
G1 X81.270 Y85.510 E0.01672
G1 X142.490 Y146.730 E2.71476
G1 X141.956 Y146.730 E0.01672
G1 X81.270 Y86.044 E2.69111
G1 X81.270 Y86.577 E0.01672
G1 X141.423 Y146.730 E2.66746
G1 X140.890 Y146.730 E0.01672
G1 X81.270 Y87.110 E2.64381
G1 X81.270 Y87.644 E0.01672
G1 X140.356 Y146.730 E2.62016
G1 X139.823 Y146.730 E0.01672
G1 X81.270 Y88.177 E2.59651
M73 Q18 S61
M73 P18 R60
G1 X81.270 Y88.710 E0.01672
G1 X139.290 Y146.730 E2.57286
G1 X138.757 Y146.730 E0.01672
G1 X81.270 Y89.243 E2.54921
G1 X81.270 Y89.777 E0.01672
G1 X138.223 Y146.730 E2.52556
G1 X137.690 Y146.730 E0.01672
G1 X81.270 Y90.310 E2.50191
