; generated by PrusaSlicer 2.2.0+linux-x64 on 2021-03-15 at 17:45:26 UTC

; 

; external perimeters extrusion width = 0.45mm
; perimeters extrusion width = 0.45mm
; infill extrusion width = 0.45mm
; solid infill extrusion width = 0.45mm
; top infill extrusion width = 0.40mm
; first layer extrusion width = 0.42mm

M73 P0 R90
M73 Q0 S90
M201 X1000 Y1000 Z200 E5000 ; sets maximum accelerations, mm/sec^2
M203 X200 Y200 Z12 E120 ; sets maximum feedrates, mm/sec
M204 P1250 R1250 T1250 ; sets acceleration (P, T) and retract acceleration (R), mm/sec^2
M205 X8.00 Y8.00 Z0.40 E4.50 ; sets the jerk limits, mm/sec
M205 S0 T0 ; sets the minimum extruding and travel feed rate, mm/sec
M107
M862.3 P "MK3S" ; printer model check
M862.1 P0.4 ; nozzle diameter check
M115 U3.9.3 ; tell printer latest fw version
G90 ; use absolute coordinates
M83 ; extruder relative mode
M104 S215 ; set extruder temp
M140 S60 ; set bed temp
M190 S60 ; wait for bed temp
M109 S215 ; wait for extruder temp
G28 W ; home all without mesh bed level
G80 ; mesh bed leveling
G1 Y-3.0 F1000.0 ; go outside print area
G92 E0.0
G1 X60.0 E9.0 F1000.0 ; intro line
M73 Q0 S90
M73 P0 R90
G1 X100.0 E12.5 F1000.0 ; intro line
G92 E0.0
M221 S95

; Don't change E values below. Excessive value can damage the printer.
M907 E430 ; set extruder motor current
G21 ; set units to millimeters
G90 ; use absolute coordinates
M83 ; use relative distances for extrusion
M900 K0.05 ; Filament gcode LA 1.5
M900 K30 ; Filament gcode LA 1.0
;BEFORE_LAYER_CHANGE
G92 E0.0
;0.2


G1 E-0.80000 F2100.00000
G1 Z0.400 F10800.000
;AFTER_LAYER_CHANGE
;0.2
G1 X79.400 Y66.461
G1 Z0.200
G1 E0.80000 F2100.00000
M204 S1000
G1 F1200.000
G1 X80.188 Y66.323 E0.02508
G1 X170.804 Y66.323 E2.84119
G1 X171.702 Y66.501 E0.02872
G1 X172.464 Y67.003 E0.02860
G1 X172.982 Y67.758 E0.02872
G1 X173.177 Y68.653 E0.02872
G1 X173.177 Y141.327 E2.27863
G1 X173.113 Y141.847 E0.01645
G1 X172.938 Y142.338 E0.01633
G1 X172.661 Y142.779 E0.01633
G1 X172.294 Y143.149 E0.01633
G1 X171.600 Y143.538 E0.02496
G1 X170.813 Y143.677 E0.02508
G1 X80.166 Y143.677 E2.84217
G1 X79.491 Y143.569 E0.02142
G1 X78.878 Y143.276 E0.02130
G1 X77.351 Y141.794 E0.06671
G1 X76.961 Y141.100 E0.02496
G1 X76.823 Y140.316 E0.02496
G1 X76.823 Y69.658 E2.21542
G1 X76.932 Y68.987 E0.02130
G1 X77.226 Y68.375 E0.02130
G1 X78.706 Y66.851 E0.06659
G1 X79.348 Y66.491 E0.02308
; printing object tray_SD_ETH-Cube.stl id:0 copy 0
G1 F8640.000
G1 X80.188 Y66.323 E-0.19782
G1 X82.623 Y66.323 E-0.56218
G1 E-0.04000 F2100.00000
G1 Z0.600 F10800.000
G1 X80.526 Y69.487
G1 Z0.200
G1 E0.80000 F2100.00000
G1 F1200.000
G1 X170.013 Y69.487 E2.80580
G1 X170.013 Y140.513 E2.22697
G1 X80.526 Y140.513 E2.80580
G1 X79.987 Y139.974 E0.02390
G1 X79.987 Y70.026 E2.19317
G1 X80.484 Y69.530 E0.02202
G1 X80.370 Y69.110 F10800.000
G1 F1200.000
G1 X170.390 Y69.110 E2.82252
G1 X170.390 Y140.890 E2.25061
G1 X80.370 Y140.890 E2.82252
G1 X79.610 Y140.130 E0.03369
G1 X79.610 Y69.870 E2.20296
G1 X80.327 Y69.152 E0.03181
G1 X80.716 Y69.311 F10800.000
G1 F8640.000
G1 X83.619 Y69.151 E-0.76000
G1 E-0.04000 F2100.00000
G1 Z0.600 F10800.000
G1 X169.900 Y70.364
G1 Z0.200
G1 E0.80000 F2100.00000
G1 F1200.000
G1 X169.306 Y69.770 E0.02636
G1 X168.772 Y69.770 E0.01676
G1 X169.730 Y70.728 E0.04253
G1 X169.730 Y71.262 E0.01676
G1 X168.238 Y69.770 E0.06624
G1 X167.704 Y69.770 E0.01676
G1 X169.730 Y71.796 E0.08995
G1 X169.730 Y72.330 E0.01676
G1 X167.170 Y69.770 E0.11366
G1 X166.636 Y69.770 E0.01676
G1 X169.730 Y72.864 E0.13736
G1 X169.730 Y73.398 E0.01676
G1 X166.102 Y69.770 E0.16107
G1 X165.568 Y69.770 E0.01676
G1 X169.730 Y73.932 E0.18478
G1 X169.730 Y74.466 E0.01676
G1 X165.034 Y69.770 E0.20849
G1 X164.500 Y69.770 E0.01676
G1 X169.730 Y75.000 E0.23220
G1 X169.730 Y75.534 E0.01676
G1 X163.966 Y69.770 E0.25590
G1 X163.433 Y69.770 E0.01676
G1 X169.730 Y76.067 E0.27961
G1 X169.730 Y76.601 E0.01676
G1 X162.899 Y69.770 E0.30332
G1 X162.365 Y69.770 E0.01676
G1 X169.730 Y77.135 E0.32703
G1 X169.730 Y77.669 E0.01676
G1 X161.831 Y69.770 E0.35074
G1 X161.297 Y69.770 E0.01676
G1 X169.730 Y78.203 E0.37444
M73 Q1 S89
G1 X169.730 Y78.737 E0.01676
G1 X160.763 Y69.770 E0.39815
M73 P1 R89
G1 X160.229 Y69.770 E0.01676
G1 X169.730 Y79.271 E0.42186
G1 X169.730 Y79.805 E0.01676
G1 X159.695 Y69.770 E0.44557
G1 X159.161 Y69.770 E0.01676
G1 X169.730 Y80.339 E0.46928
G1 X169.730 Y80.873 E0.01676
G1 X158.627 Y69.770 E0.49298
G1 X158.093 Y69.770 E0.01676
G1 X169.730 Y81.407 E0.51669
G1 X169.730 Y81.941 E0.01676
G1 X157.559 Y69.770 E0.54040
G1 X157.025 Y69.770 E0.01676
G1 X169.730 Y82.475 E0.56411
G1 X169.730 Y83.009 E0.01676
G1 X156.491 Y69.770 E0.58782
G1 X155.957 Y69.770 E0.01676
G1 X169.730 Y83.543 E0.61152
G1 X169.730 Y84.077 E0.01676
G1 X155.423 Y69.770 E0.63523
G1 X154.889 Y69.770 E0.01676
G1 X169.730 Y84.611 E0.65894
G1 X169.730 Y85.145 E0.01676
G1 X154.355 Y69.770 E0.68265
G1 X153.821 Y69.770 E0.01676
G1 X169.730 Y85.679 E0.70636
G1 X169.730 Y86.213 E0.01676
G1 X153.287 Y69.770 E0.73006
G1 X152.753 Y69.770 E0.01676
G1 X169.730 Y86.747 E0.75377
G1 X169.730 Y87.281 E0.01676
G1 X152.219 Y69.770 E0.77748
G1 X151.685 Y69.770 E0.01676
G1 X169.730 Y87.815 E0.80119
G1 X169.730 Y88.349 E0.01676
G1 X151.151 Y69.770 E0.82490
G1 X150.617 Y69.770 E0.01676
G1 X169.730 Y88.883 E0.84861
G1 X169.730 Y89.417 E0.01676
G1 X150.083 Y69.770 E0.87231
G1 X149.549 Y69.770 E0.01676
G1 X169.730 Y89.951 E0.89602
G1 X169.730 Y90.485 E0.01676
G1 X149.015 Y69.770 E0.91973
G1 X148.481 Y69.770 E0.01676
G1 X169.730 Y91.019 E0.94344
G1 X169.730 Y91.553 E0.01676
G1 X147.947 Y69.770 E0.96715
G1 X147.413 Y69.770 E0.01676
G1 X169.730 Y92.087 E0.99085
G1 X169.730 Y92.621 E0.01676
G1 X146.879 Y69.770 E1.01456
G1 X146.346 Y69.770 E0.01676
G1 X169.730 Y93.154 E1.03827
G1 X169.730 Y93.688 E0.01676
G1 X145.812 Y69.770 E1.06198
G1 X145.278 Y69.770 E0.01676
G1 X169.730 Y94.222 E1.08569
G1 X169.730 Y94.756 E0.01676
G1 X144.744 Y69.770 E1.10939
G1 X144.210 Y69.770 E0.01676
G1 X169.730 Y95.290 E1.13310
G1 X169.730 Y95.824 E0.01676
G1 X143.676 Y69.770 E1.15681
G1 X143.142 Y69.770 E0.01676
G1 X169.730 Y96.358 E1.18052
G1 X169.730 Y96.892 E0.01676
G1 X142.608 Y69.770 E1.20423
G1 X142.074 Y69.770 E0.01676
G1 X169.730 Y97.426 E1.22793
G1 X169.730 Y97.960 E0.01676
G1 X141.540 Y69.770 E1.25164
G1 X141.006 Y69.770 E0.01676
G1 X169.730 Y98.494 E1.27535
G1 X169.730 Y99.028 E0.01676
G1 X140.472 Y69.770 E1.29906
G1 X139.938 Y69.770 E0.01676
G1 X169.730 Y99.562 E1.32277
G1 X169.730 Y100.096 E0.01676
G1 X139.404 Y69.770 E1.34647
G1 X138.870 Y69.770 E0.01676
G1 X169.730 Y100.630 E1.37018
M73 Q2 S88
M73 P2 R88
G1 X169.730 Y101.164 E0.01676
G1 X138.336 Y69.770 E1.39389
G1 X137.802 Y69.770 E0.01676
G1 X169.730 Y101.698 E1.41760
G1 X169.730 Y102.232 E0.01676
G1 X137.268 Y69.770 E1.44131
G1 X136.734 Y69.770 E0.01676
G1 X169.730 Y102.766 E1.46501
G1 X169.730 Y103.300 E0.01676
G1 X136.200 Y69.770 E1.48872
G1 X135.666 Y69.770 E0.01676
G1 X169.730 Y103.834 E1.51243
G1 X169.730 Y104.368 E0.01676
G1 X135.132 Y69.770 E1.53614
G1 X134.598 Y69.770 E0.01676
G1 X169.730 Y104.902 E1.55985
G1 X169.730 Y105.436 E0.01676
G1 X134.064 Y69.770 E1.58355
G1 X133.530 Y69.770 E0.01676
G1 X169.730 Y105.970 E1.60726
G1 X169.730 Y106.504 E0.01676
G1 X132.996 Y69.770 E1.63097
G1 X132.462 Y69.770 E0.01676
G1 X169.730 Y107.038 E1.65468
G1 X169.730 Y107.572 E0.01676
G1 X131.928 Y69.770 E1.67839
G1 X131.394 Y69.770 E0.01676
G1 X169.730 Y108.106 E1.70210
G1 X169.730 Y108.640 E0.01676
G1 X130.860 Y69.770 E1.72580
G1 X130.326 Y69.770 E0.01676
G1 X169.730 Y109.174 E1.74951
G1 X169.730 Y109.708 E0.01676
G1 X129.792 Y69.770 E1.77322
G1 X129.259 Y69.770 E0.01676
G1 X169.730 Y110.241 E1.79693
G1 X169.730 Y110.775 E0.01676
G1 X128.725 Y69.770 E1.82064
G1 X128.191 Y69.770 E0.01676
G1 X169.730 Y111.309 E1.84434
G1 X169.730 Y111.843 E0.01676
G1 X127.657 Y69.770 E1.86805
G1 X127.123 Y69.770 E0.01676
G1 X169.730 Y112.377 E1.89176
G1 X169.730 Y112.911 E0.01676
G1 X126.589 Y69.770 E1.91547
M73 Q3 S87
M73 P3 R87
G1 X126.055 Y69.770 E0.01676
G1 X169.730 Y113.445 E1.93918
G1 X169.730 Y113.979 E0.01676
G1 X125.521 Y69.770 E1.96288
G1 X124.987 Y69.770 E0.01676
G1 X169.730 Y114.513 E1.98659
G1 X169.730 Y115.047 E0.01676
G1 X124.453 Y69.770 E2.01030
G1 X123.919 Y69.770 E0.01676
G1 X169.730 Y115.581 E2.03401
G1 X169.730 Y116.115 E0.01676
G1 X123.385 Y69.770 E2.05772
G1 X122.851 Y69.770 E0.01676
G1 X169.730 Y116.649 E2.08142
G1 X169.730 Y117.183 E0.01676
G1 X122.317 Y69.770 E2.10513
G1 X121.783 Y69.770 E0.01676
G1 X169.730 Y117.717 E2.12884
G1 X169.730 Y118.251 E0.01676
G1 X121.249 Y69.770 E2.15255
G1 X120.715 Y69.770 E0.01676
G1 X169.730 Y118.785 E2.17626
G1 X169.730 Y119.319 E0.01676
G1 X120.181 Y69.770 E2.19996
G1 X119.647 Y69.770 E0.01676
G1 X169.730 Y119.853 E2.22367
G1 X169.730 Y120.387 E0.01676
G1 X119.113 Y69.770 E2.24738
G1 X118.579 Y69.770 E0.01676
G1 X169.730 Y120.921 E2.27109
G1 X169.730 Y121.455 E0.01676
G1 X118.045 Y69.770 E2.29480
G1 X117.511 Y69.770 E0.01676
G1 X169.730 Y121.989 E2.31850
G1 X169.730 Y122.523 E0.01676
G1 X116.977 Y69.770 E2.34221
M73 Q4 S86
M73 P4 R86
G1 X116.443 Y69.770 E0.01676
G1 X169.730 Y123.057 E2.36592
G1 X169.730 Y123.591 E0.01676
G1 X115.909 Y69.770 E2.38963
G1 X115.375 Y69.770 E0.01676
G1 X169.730 Y124.125 E2.41334
G1 X169.730 Y124.659 E0.01676
G1 X114.841 Y69.770 E2.43704
G1 X114.307 Y69.770 E0.01676
G1 X169.730 Y125.193 E2.46075
G1 X169.730 Y125.727 E0.01676
G1 X113.773 Y69.770 E2.48446
G1 X113.239 Y69.770 E0.01676
G1 X169.730 Y126.261 E2.50817
G1 X169.730 Y126.795 E0.01676
G1 X112.705 Y69.770 E2.53188
G1 X112.172 Y69.770 E0.01676
G1 X169.730 Y127.328 E2.55558
G1 X169.730 Y127.862 E0.01676
G1 X111.638 Y69.770 E2.57929
G1 X111.104 Y69.770 E0.01676
G1 X169.730 Y128.396 E2.60300
G1 X169.730 Y128.930 E0.01676
G1 X110.570 Y69.770 E2.62671
G1 X110.036 Y69.770 E0.01676
G1 X169.730 Y129.464 E2.65042
G1 X169.730 Y129.998 E0.01676
G1 X109.502 Y69.770 E2.67413
G1 X108.968 Y69.770 E0.01676
G1 X169.730 Y130.532 E2.69783
M73 Q5 S85
M73 P5 R85
G1 X169.730 Y131.066 E0.01676
G1 X108.434 Y69.770 E2.72154
G1 X107.900 Y69.770 E0.01676
G1 X169.730 Y131.600 E2.74525
G1 X169.730 Y132.134 E0.01676
G1 X107.366 Y69.770 E2.76896
G1 X106.832 Y69.770 E0.01676
G1 X169.730 Y132.668 E2.79267
G1 X169.730 Y133.202 E0.01676
G1 X106.298 Y69.770 E2.81637
G1 X105.764 Y69.770 E0.01676
G1 X169.730 Y133.736 E2.84008
G1 X169.730 Y134.270 E0.01676
G1 X105.230 Y69.770 E2.86379
G1 X104.696 Y69.770 E0.01676
G1 X169.730 Y134.804 E2.88750
G1 X169.730 Y135.338 E0.01676
G1 X104.162 Y69.770 E2.91121
G1 X103.628 Y69.770 E0.01676
G1 X169.730 Y135.872 E2.93491
G1 X169.730 Y136.406 E0.01676
G1 X103.094 Y69.770 E2.95862
G1 X102.560 Y69.770 E0.01676
G1 X169.730 Y136.940 E2.98233
G1 X169.730 Y137.474 E0.01676
G1 X102.026 Y69.770 E3.00604
G1 X101.492 Y69.770 E0.01676
G1 X169.730 Y138.008 E3.02975
M73 Q6 S84
M73 P6 R84
G1 X169.730 Y138.542 E0.01676
G1 X100.958 Y69.770 E3.05345
G1 X100.424 Y69.770 E0.01676
G1 X169.730 Y139.076 E3.07716
G1 X169.730 Y139.610 E0.01676
G1 X99.890 Y69.770 E3.10087
G1 X99.356 Y69.770 E0.01676
G1 X169.730 Y140.144 E3.12458
G1 X169.730 Y140.230 E0.00271
G1 X169.283 Y140.230 E0.01405
G1 X98.822 Y69.770 E3.12841
G1 X98.288 Y69.770 E0.01676
G1 X168.749 Y140.230 E3.12841
G1 X168.215 Y140.230 E0.01676
G1 X97.754 Y69.770 E3.12841
G1 X97.220 Y69.770 E0.01676
G1 X167.681 Y140.230 E3.12841
G1 X167.147 Y140.230 E0.01676
G1 X96.686 Y69.770 E3.12841
G1 X96.152 Y69.770 E0.01676
G1 X166.613 Y140.230 E3.12841
G1 X166.079 Y140.230 E0.01676
G1 X95.618 Y69.770 E3.12841
G1 X95.085 Y69.770 E0.01676
G1 X165.545 Y140.230 E3.12841
G1 X165.011 Y140.230 E0.01676
M73 Q8 S83
M73 P8 R83
G1 X94.551 Y69.770 E3.12841
G1 X94.017 Y69.770 E0.01676
G1 X164.477 Y140.230 E3.12841
G1 X163.943 Y140.230 E0.01676
G1 X93.483 Y69.770 E3.12841
G1 X92.949 Y69.770 E0.01676
G1 X163.409 Y140.230 E3.12841
G1 X162.875 Y140.230 E0.01676
G1 X92.415 Y69.770 E3.12841
G1 X91.881 Y69.770 E0.01676
G1 X162.341 Y140.230 E3.12841
G1 X161.807 Y140.230 E0.01676
G1 X91.347 Y69.770 E3.12841
G1 X90.813 Y69.770 E0.01676
G1 X161.273 Y140.230 E3.12841
G1 X160.739 Y140.230 E0.01676
G1 X90.279 Y69.770 E3.12841
G1 X89.745 Y69.770 E0.01676
G1 X160.205 Y140.230 E3.12841
G1 X159.671 Y140.230 E0.01676
G1 X89.211 Y69.770 E3.12841
G1 X88.677 Y69.770 E0.01676
G1 X159.137 Y140.230 E3.12841
M73 Q9 S82
M73 P9 R82
G1 X158.603 Y140.230 E0.01676
G1 X88.143 Y69.770 E3.12841
G1 X87.609 Y69.770 E0.01676
G1 X158.069 Y140.230 E3.12841
G1 X157.535 Y140.230 E0.01676
G1 X87.075 Y69.770 E3.12841
G1 X86.541 Y69.770 E0.01676
G1 X157.001 Y140.230 E3.12841
G1 X156.467 Y140.230 E0.01676
G1 X86.007 Y69.770 E3.12841
G1 X85.473 Y69.770 E0.01676
G1 X155.933 Y140.230 E3.12841
G1 X155.399 Y140.230 E0.01676
G1 X84.939 Y69.770 E3.12841
G1 X84.405 Y69.770 E0.01676
G1 X154.865 Y140.230 E3.12841
G1 X154.331 Y140.230 E0.01676
G1 X83.871 Y69.770 E3.12841
G1 X83.337 Y69.770 E0.01676
G1 X153.797 Y140.230 E3.12841
G1 X153.263 Y140.230 E0.01676
G1 X82.803 Y69.770 E3.12841
G1 X82.269 Y69.770 E0.01676
G1 X152.730 Y140.230 E3.12841
M73 Q10 S81
M73 P10 R81
G1 X152.196 Y140.230 E0.01676
G1 X81.735 Y69.770 E3.12841
G1 X81.201 Y69.770 E0.01676
G1 X151.662 Y140.230 E3.12841
G1 X151.128 Y140.230 E0.01676
G1 X80.667 Y69.770 E3.12841
G1 X80.643 Y69.770 E0.00076
G1 X80.388 Y70.025 E0.01132
G1 X150.594 Y140.230 E3.11710
G1 X150.060 Y140.230 E0.01676
G1 X80.270 Y70.440 E3.09865
G1 X80.270 Y70.974 E0.01676
G1 X149.526 Y140.230 E3.07494
G1 X148.992 Y140.230 E0.01676
G1 X80.270 Y71.508 E3.05123
G1 X80.270 Y72.042 E0.01676
G1 X148.458 Y140.230 E3.02752
G1 X147.924 Y140.230 E0.01676
G1 X80.270 Y72.576 E3.00381
G1 X80.270 Y73.110 E0.01676
G1 X147.390 Y140.230 E2.98011
G1 X146.856 Y140.230 E0.01676
G1 X80.270 Y73.644 E2.95640
G1 X80.270 Y74.178 E0.01676
G1 X146.322 Y140.230 E2.93269
G1 X145.788 Y140.230 E0.01676
G1 X80.270 Y74.712 E2.90898
M73 Q11 S80
M73 P11 R80
G1 X80.270 Y75.246 E0.01676
G1 X145.254 Y140.230 E2.88527
G1 X144.720 Y140.230 E0.01676
G1 X80.270 Y75.780 E2.86156
G1 X80.270 Y76.314 E0.01676
G1 X144.186 Y140.230 E2.83786
G1 X143.652 Y140.230 E0.01676
G1 X80.270 Y76.848 E2.81415
G1 X80.270 Y77.382 E0.01676
G1 X143.118 Y140.230 E2.79044
G1 X142.584 Y140.230 E0.01676
G1 X80.270 Y77.916 E2.76673
G1 X80.270 Y78.450 E0.01676
G1 X142.050 Y140.230 E2.74302
G1 X141.516 Y140.230 E0.01676
G1 X80.270 Y78.984 E2.71932
G1 X80.270 Y79.518 E0.01676
G1 X140.982 Y140.230 E2.69561
G1 X140.448 Y140.230 E0.01676
G1 X80.270 Y80.052 E2.67190
G1 X80.270 Y80.586 E0.01676
G1 X139.914 Y140.230 E2.64819
G1 X139.380 Y140.230 E0.01676
G1 X80.270 Y81.120 E2.62448
G1 X80.270 Y81.654 E0.01676
G1 X138.846 Y140.230 E2.60078
G1 X138.312 Y140.230 E0.01676
G1 X80.270 Y82.188 E2.57707
M73 Q12 S79
M73 P12 R79
G1 X80.270 Y82.722 E0.01676
G1 X137.778 Y140.230 E2.55336
G1 X137.244 Y140.230 E0.01676
G1 X80.270 Y83.256 E2.52965
G1 X80.270 Y83.790 E0.01676
G1 X136.710 Y140.230 E2.50594
G1 X136.176 Y140.230 E0.01676
G1 X80.270 Y84.324 E2.48224
G1 X80.270 Y84.857 E0.01676
G1 X135.643 Y140.230 E2.45853
G1 X135.109 Y140.230 E0.01676
G1 X80.270 Y85.391 E2.43482
G1 X80.270 Y85.925 E0.01676
G1 X134.575 Y140.230 E2.41111
G1 X134.041 Y140.230 E0.01676
G1 X80.270 Y86.459 E2.38740
G1 X80.270 Y86.993 E0.01676
G1 X133.507 Y140.230 E2.36370
G1 X132.973 Y140.230 E0.01676
G1 X80.270 Y87.527 E2.33999
G1 X80.270 Y88.061 E0.01676
G1 X132.439 Y140.230 E2.31628
G1 X131.905 Y140.230 E0.01676
G1 X80.270 Y88.595 E2.29257
G1 X80.270 Y89.129 E0.01676
G1 X131.371 Y140.230 E2.26886
G1 X130.837 Y140.230 E0.01676
G1 X80.270 Y89.663 E2.24516
G1 X80.270 Y90.197 E0.01676
G1 X130.303 Y140.230 E2.22145
G1 X129.769 Y140.230 E0.01676
G1 X80.270 Y90.731 E2.19774
M73 Q13 S78
M73 P13 R78
G1 X80.270 Y91.265 E0.01676
G1 X129.235 Y140.230 E2.17403
G1 X128.701 Y140.230 E0.01676
G1 X80.270 Y91.799 E2.15032
G1 X80.270 Y92.333 E0.01676
G1 X128.167 Y140.230 E2.12662
G1 X127.633 Y140.230 E0.01676
G1 X80.270 Y92.867 E2.10291
G1 X80.270 Y93.401 E0.01676
G1 X127.099 Y140.230 E2.07920
G1 X126.565 Y140.230 E0.01676
G1 X80.270 Y93.935 E2.05549
G1 X80.270 Y94.469 E0.01676
G1 X126.031 Y140.230 E2.03178
G1 X125.497 Y140.230 E0.01676
