; generated by PrusaSlicer 2.3.3+linux-x64-GTK3 on 2022-08-19 at 10:35:24 UTC

; 

; external perimeters extrusion width = 0.45mm
; perimeters extrusion width = 0.45mm
; infill extrusion width = 0.45mm
; solid infill extrusion width = 0.45mm
; top infill extrusion width = 0.40mm
; first layer extrusion width = 0.42mm

M73 P0 R58
M73 Q0 S58
M201 X1000 Y1000 Z200 E5000 ; sets maximum accelerations, mm/sec^2
M203 X200 Y200 Z12 E120 ; sets maximum feedrates, mm/sec
M204 P1250 R1250 T1250 ; sets acceleration (P, T) and retract acceleration (R), mm/sec^2
M205 X8.00 Y8.00 Z0.40 E4.50 ; sets the jerk limits, mm/sec
M205 S0 T0 ; sets the minimum extruding and travel feed rate, mm/sec
M107
;TYPE:Custom
M862.3 P "MK3S" ; printer model check
M862.1 P0.4 ; nozzle diameter check
M115 U3.10.0 ; tell printer latest fw version
G90 ; use absolute coordinates
M83 ; extruder relative mode
M104 S230 ; set extruder temp
M140 S85 ; set bed temp
M190 S85 ; wait for bed temp
M109 S230 ; wait for extruder temp
G28 W ; home all without mesh bed level
G80 ; mesh bed leveling
G1 Y-3.0 F1000.0 ; go outside print area
G92 E0.0
G1 X60.0 E9.0 F1000.0 ; intro line
G1 X100.0 E12.5 F1000.0 ; intro line
G92 E0.0
M221 S95

; Don't change E values below. Excessive value can damage the printer.
M907 E430 ; set extruder motor current
G21 ; set units to millimeters
G90 ; use absolute coordinates
M83 ; use relative distances for extrusion
M900 K0.08 ; Filament gcode LA 1.5
M900 K45 ; Filament gcode LA 1.0
;LAYER_CHANGE
;Z:0.2
;HEIGHT:0.2
;BEFORE_LAYER_CHANGE
G92 E0.0
;0.2


M73 P0 R57
G1 E-1.00000 F2100.000
G1 Z0.200 F10800.000
;AFTER_LAYER_CHANGE
;0.2
G1 Z0.400
G1 X76.954 Y78.922
G1 Z0.200
G1 E1.00000 F2100.000
M204 S1000
;TYPE:Skirt
;WIDTH:0.42
G1 F1200.000
G1 X77.281 Y78.297 E0.02213
G1 X78.555 Y76.985 E0.05734
G1 X78.994 Y76.652 E0.01728
G1 X79.571 Y76.408 E0.01965
G1 X80.192 Y76.323 E0.01965
G1 X170.804 Y76.323 E2.84107
G1 X171.702 Y76.501 E0.02872
G1 X172.464 Y77.003 E0.02860
G1 X172.981 Y77.755 E0.02860
G1 X173.177 Y78.649 E0.02872
G1 X173.177 Y131.350 E1.65237
M73 Q0 S57
G1 X173.087 Y131.947 E0.01894
G1 X172.850 Y132.502 E0.01894
G1 X172.481 Y132.980 E0.01894
G1 X172.007 Y133.348 E0.01882
G1 X171.430 Y133.592 E0.01965
G1 X170.809 Y133.677 E0.01965
G1 X80.154 Y133.677 E2.84241
G1 X79.444 Y133.554 E0.02260
G1 X78.806 Y133.226 E0.02249
G1 X77.487 Y131.948 E0.05757
G1 X77.152 Y131.506 E0.01740
G1 X76.909 Y130.933 E0.01953
G1 X76.823 Y130.316 E0.01953
G1 X76.824 Y79.620 E1.58953
G1 X76.943 Y78.981 E0.02037
; printing object tray_ETH-Cube.stl id:0 copy 0
;WIPE_START
G1 F8640.000
G1 X77.281 Y78.297 E-0.17627
G1 X78.555 Y76.985 E-0.42225
G1 X78.994 Y76.652 E-0.12724
G1 X79.571 Y76.408 E-0.14470
G1 X79.912 Y76.361 E-0.07954
;WIPE_END
G1 E-0.05000 F2100.000
G1 Z0.400 F10800.000
G1 X79.987 Y80.026
G1 Z0.200
G1 E1.00000 F2100.000
;TYPE:Perimeter
G1 F1200.000
G1 X80.526 Y79.487 E0.02390
G1 X170.013 Y79.487 E2.80580
G1 X170.013 Y130.513 E1.59988
G1 X80.526 Y130.513 E2.80580
G1 X79.987 Y129.974 E0.02390
G1 X79.987 Y80.086 E1.56420
M73 P1 R57
M73 Q1 S57
G1 X79.610 Y79.870 F10800.000
;TYPE:External perimeter
G1 F1200.000
G1 X80.370 Y79.110 E0.03369
G1 X170.390 Y79.110 E2.82252
G1 X170.390 Y130.890 E1.62353
G1 X80.370 Y130.890 E2.82252
G1 X79.610 Y130.130 E0.03369
G1 X79.610 Y79.930 E1.57400
G1 X80.010 Y79.868 F10800.000
;WIPE_START
G1 F8640.000
G1 X80.370 Y79.110 E-0.25810
G1 X83.366 Y79.110 E-0.69190
;WIPE_END
G1 E-0.05000 F2100.000
G1 Z0.400 F10800.000
G1 X169.900 Y80.365
G1 Z0.200
G1 E1.00000 F2100.000
;TYPE:Solid infill
;WIDTH:0.421278
G1 F1200.000
G1 X169.305 Y79.770 E0.02649
G1 X168.769 Y79.770 E0.01683
G1 X169.730 Y80.731 E0.04274
G1 X169.730 Y81.266 E0.01683
G1 X168.234 Y79.770 E0.06655
G1 X167.699 Y79.770 E0.01683
G1 X169.730 Y81.801 E0.09036
G1 X169.730 Y82.336 E0.01683
G1 X167.164 Y79.770 E0.11416
G1 X166.629 Y79.770 E0.01683
G1 X169.730 Y82.871 E0.13797
G1 X169.730 Y83.406 E0.01683
G1 X166.094 Y79.770 E0.16178
G1 X165.559 Y79.770 E0.01683
G1 X169.730 Y83.941 E0.18558
G1 X169.730 Y84.476 E0.01683
G1 X165.024 Y79.770 E0.20939
G1 X164.489 Y79.770 E0.01683
G1 X169.730 Y85.011 E0.23320
G1 X169.730 Y85.546 E0.01683
G1 X163.954 Y79.770 E0.25700
G1 X163.419 Y79.770 E0.01683
G1 X169.730 Y86.081 E0.28081
G1 X169.730 Y86.616 E0.01683
G1 X162.884 Y79.770 E0.30462
G1 X162.348 Y79.770 E0.01683
G1 X169.730 Y87.152 E0.32842
G1 X169.730 Y87.687 E0.01683
G1 X161.813 Y79.770 E0.35223
G1 X161.278 Y79.770 E0.01683
G1 X169.730 Y88.222 E0.37604
G1 X169.730 Y88.757 E0.01683
G1 X160.743 Y79.770 E0.39984
G1 X160.208 Y79.770 E0.01683
G1 X169.730 Y89.292 E0.42365
G1 X169.730 Y89.827 E0.01683
G1 X159.673 Y79.770 E0.44746
G1 X159.138 Y79.770 E0.01683
G1 X169.730 Y90.362 E0.47126
G1 X169.730 Y90.897 E0.01683
G1 X158.603 Y79.770 E0.49507
G1 X158.068 Y79.770 E0.01683
G1 X169.730 Y91.432 E0.51888
G1 X169.730 Y91.967 E0.01683
G1 X157.533 Y79.770 E0.54268
G1 X156.998 Y79.770 E0.01683
G1 X169.730 Y92.502 E0.56649
G1 X169.730 Y93.037 E0.01683
G1 X156.463 Y79.770 E0.59030
M73 P1 R56
G1 X155.928 Y79.770 E0.01683
G1 X169.730 Y93.572 E0.61410
G1 X169.730 Y94.108 E0.01683
G1 X155.392 Y79.770 E0.63791
G1 X154.857 Y79.770 E0.01683
G1 X169.730 Y94.643 E0.66172
G1 X169.730 Y95.178 E0.01683
G1 X154.322 Y79.770 E0.68552
M73 P2 R56
M73 Q2 S57
G1 X153.787 Y79.770 E0.01683
G1 X169.730 Y95.713 E0.70933
G1 X169.730 Y96.248 E0.01683
G1 X153.252 Y79.770 E0.73314
G1 X152.717 Y79.770 E0.01683
G1 X169.730 Y96.783 E0.75695
G1 X169.730 Y97.318 E0.01683
G1 X152.182 Y79.770 E0.78075
M73 Q2 S56
G1 X151.647 Y79.770 E0.01683
G1 X169.730 Y97.853 E0.80456
G1 X169.730 Y98.388 E0.01683
G1 X151.112 Y79.770 E0.82837
G1 X150.577 Y79.770 E0.01683
G1 X169.730 Y98.923 E0.85217
G1 X169.730 Y99.458 E0.01683
G1 X150.042 Y79.770 E0.87598
G1 X149.507 Y79.770 E0.01683
G1 X169.730 Y99.993 E0.89979
G1 X169.730 Y100.528 E0.01683
G1 X148.972 Y79.770 E0.92359
G1 X148.436 Y79.770 E0.01683
G1 X169.730 Y101.064 E0.94740
G1 X169.730 Y101.599 E0.01683
G1 X147.901 Y79.770 E0.97121
G1 X147.366 Y79.770 E0.01683
G1 X169.730 Y102.134 E0.99501
G1 X169.730 Y102.669 E0.01683
G1 X146.831 Y79.770 E1.01882
G1 X146.296 Y79.770 E0.01683
G1 X169.730 Y103.204 E1.04263
G1 X169.730 Y103.739 E0.01683
G1 X145.761 Y79.770 E1.06643
G1 X145.226 Y79.770 E0.01683
G1 X169.730 Y104.274 E1.09024
G1 X169.730 Y104.809 E0.01683
G1 X144.691 Y79.770 E1.11405
G1 X144.156 Y79.770 E0.01683
G1 X169.730 Y105.344 E1.13785
G1 X169.730 Y105.879 E0.01683
G1 X143.621 Y79.770 E1.16166
G1 X143.086 Y79.770 E0.01683
G1 X169.730 Y106.414 E1.18547
G1 X169.730 Y106.949 E0.01683
G1 X142.551 Y79.770 E1.20927
M73 Q3 S56
G1 X142.015 Y79.770 E0.01683
G1 X169.730 Y107.485 E1.23308
M73 P3 R56
G1 X169.730 Y108.020 E0.01683
G1 X141.480 Y79.770 E1.25689
G1 X140.945 Y79.770 E0.01683
G1 X169.730 Y108.555 E1.28069
G1 X169.730 Y109.090 E0.01683
G1 X140.410 Y79.770 E1.30450
G1 X139.875 Y79.770 E0.01683
G1 X169.730 Y109.625 E1.32831
G1 X169.730 Y110.160 E0.01683
G1 X139.340 Y79.770 E1.35211
G1 X138.805 Y79.770 E0.01683
G1 X169.730 Y110.695 E1.37592
G1 X169.730 Y111.230 E0.01683
G1 X138.270 Y79.770 E1.39973
G1 X137.735 Y79.770 E0.01683
G1 X169.730 Y111.765 E1.42353
G1 X169.730 Y112.300 E0.01683
G1 X137.200 Y79.770 E1.44734
M73 P3 R55
G1 X136.665 Y79.770 E0.01683
G1 X169.730 Y112.835 E1.47115
G1 X169.730 Y113.370 E0.01683
G1 X136.130 Y79.770 E1.49495
G1 X135.595 Y79.770 E0.01683
G1 X169.730 Y113.905 E1.51876
G1 X169.730 Y114.441 E0.01683
G1 X135.059 Y79.770 E1.54257
M73 Q3 S55
G1 X134.524 Y79.770 E0.01683
G1 X169.730 Y114.976 E1.56637
G1 X169.730 Y115.511 E0.01683
G1 X133.989 Y79.770 E1.59018
M73 P4 R55
M73 Q4 S55
G1 X133.454 Y79.770 E0.01683
G1 X169.730 Y116.046 E1.61399
G1 X169.730 Y116.581 E0.01683
G1 X132.919 Y79.770 E1.63779
G1 X132.384 Y79.770 E0.01683
G1 X169.730 Y117.116 E1.66160
G1 X169.730 Y117.651 E0.01683
G1 X131.849 Y79.770 E1.68541
G1 X131.314 Y79.770 E0.01683
G1 X169.730 Y118.186 E1.70921
G1 X169.730 Y118.721 E0.01683
G1 X130.779 Y79.770 E1.73302
G1 X130.244 Y79.770 E0.01683
G1 X169.730 Y119.256 E1.75683
G1 X169.730 Y119.791 E0.01683
G1 X129.709 Y79.770 E1.78063
G1 X129.174 Y79.770 E0.01683
G1 X169.730 Y120.326 E1.80444
G1 X169.730 Y120.861 E0.01683
G1 X128.639 Y79.770 E1.82825
G1 X128.103 Y79.770 E0.01683
G1 X169.730 Y121.397 E1.85206
G1 X169.730 Y121.932 E0.01683
G1 X127.568 Y79.770 E1.87586
M73 P5 R55
M73 Q5 S55
G1 X127.033 Y79.770 E0.01683
G1 X169.730 Y122.467 E1.89967
G1 X169.730 Y123.002 E0.01683
G1 X126.498 Y79.770 E1.92348
G1 X125.963 Y79.770 E0.01683
G1 X169.730 Y123.537 E1.94728
G1 X169.730 Y124.072 E0.01683
G1 X125.428 Y79.770 E1.97109
M73 P5 R54
G1 X124.893 Y79.770 E0.01683
G1 X169.730 Y124.607 E1.99490
G1 X169.730 Y125.142 E0.01683
G1 X124.358 Y79.770 E2.01870
G1 X123.823 Y79.770 E0.01683
G1 X169.730 Y125.677 E2.04251
M73 Q5 S54
G1 X169.730 Y126.212 E0.01683
G1 X123.288 Y79.770 E2.06632
G1 X122.753 Y79.770 E0.01683
G1 X169.730 Y126.747 E2.09012
G1 X169.730 Y127.282 E0.01683
G1 X122.218 Y79.770 E2.11393
G1 X121.682 Y79.770 E0.01683
G1 X169.730 Y127.818 E2.13774
M73 P6 R54
M73 Q6 S54
G1 X169.730 Y128.353 E0.01683
G1 X121.147 Y79.770 E2.16154
G1 X120.612 Y79.770 E0.01683
G1 X169.730 Y128.888 E2.18535
G1 X169.730 Y129.423 E0.01683
G1 X120.077 Y79.770 E2.20916
G1 X119.542 Y79.770 E0.01683
G1 X169.730 Y129.958 E2.23296
G1 X169.730 Y130.230 E0.00857
G1 X169.467 Y130.230 E0.00827
G1 X119.007 Y79.770 E2.24508
G1 X118.472 Y79.770 E0.01683
G1 X168.932 Y130.230 E2.24508
G1 X168.397 Y130.230 E0.01683
G1 X117.937 Y79.770 E2.24508
G1 X117.402 Y79.770 E0.01683
G1 X167.862 Y130.230 E2.24508
G1 X167.327 Y130.230 E0.01683
G1 X116.867 Y79.770 E2.24508
G1 X116.332 Y79.770 E0.01683
G1 X166.792 Y130.230 E2.24508
M73 P7 R53
M73 Q7 S54
G1 X166.257 Y130.230 E0.01683
G1 X115.797 Y79.770 E2.24508
G1 X115.262 Y79.770 E0.01683
G1 X165.722 Y130.230 E2.24508
G1 X165.187 Y130.230 E0.01683
G1 X114.726 Y79.770 E2.24508
M73 Q7 S53
G1 X114.191 Y79.770 E0.01683
G1 X164.652 Y130.230 E2.24508
G1 X164.117 Y130.230 E0.01683
G1 X113.656 Y79.770 E2.24508
G1 X113.121 Y79.770 E0.01683
G1 X163.581 Y130.230 E2.24508
G1 X163.046 Y130.230 E0.01683
G1 X112.586 Y79.770 E2.24508
G1 X112.051 Y79.770 E0.01683
G1 X162.511 Y130.230 E2.24508
G1 X161.976 Y130.230 E0.01683
G1 X111.516 Y79.770 E2.24508
M73 P8 R53
M73 Q8 S53
G1 X110.981 Y79.770 E0.01683
G1 X161.441 Y130.230 E2.24508
G1 X160.906 Y130.230 E0.01683
G1 X110.446 Y79.770 E2.24508
G1 X109.911 Y79.770 E0.01683
G1 X160.371 Y130.230 E2.24508
G1 X159.836 Y130.230 E0.01683
G1 X109.376 Y79.770 E2.24508
G1 X108.841 Y79.770 E0.01683
G1 X159.301 Y130.230 E2.24508
G1 X158.766 Y130.230 E0.01683
G1 X108.306 Y79.770 E2.24508
G1 X107.770 Y79.770 E0.01683
G1 X158.231 Y130.230 E2.24508
G1 X157.696 Y130.230 E0.01683
G1 X107.235 Y79.770 E2.24508
M73 P8 R52
G1 X106.700 Y79.770 E0.01683
G1 X157.161 Y130.230 E2.24508
G1 X156.625 Y130.230 E0.01683
G1 X106.165 Y79.770 E2.24508
M73 P9 R52
M73 Q9 S52
G1 X105.630 Y79.770 E0.01683
G1 X156.090 Y130.230 E2.24508
G1 X155.555 Y130.230 E0.01683
G1 X105.095 Y79.770 E2.24508
G1 X104.560 Y79.770 E0.01683
G1 X155.020 Y130.230 E2.24508
G1 X154.485 Y130.230 E0.01683
G1 X104.025 Y79.770 E2.24508
G1 X103.490 Y79.770 E0.01683
G1 X153.950 Y130.230 E2.24508
G1 X153.415 Y130.230 E0.01683
G1 X102.955 Y79.770 E2.24508
G1 X102.420 Y79.770 E0.01683
G1 X152.880 Y130.230 E2.24508
G1 X152.345 Y130.230 E0.01683
G1 X101.885 Y79.770 E2.24508
G1 X101.349 Y79.770 E0.01683
G1 X151.810 Y130.230 E2.24508
M73 P10 R52
M73 Q10 S52
G1 X151.275 Y130.230 E0.01683
G1 X100.814 Y79.770 E2.24508
G1 X100.279 Y79.770 E0.01683
G1 X150.740 Y130.230 E2.24508
G1 X150.204 Y130.230 E0.01683
G1 X99.744 Y79.770 E2.24508
G1 X99.209 Y79.770 E0.01683
G1 X149.669 Y130.230 E2.24508
G1 X149.134 Y130.230 E0.01683
G1 X98.674 Y79.770 E2.24508
G1 X98.139 Y79.770 E0.01683
G1 X148.599 Y130.230 E2.24508
M73 P10 R51
G1 X148.064 Y130.230 E0.01683
G1 X97.604 Y79.770 E2.24508
G1 X97.069 Y79.770 E0.01683
G1 X147.529 Y130.230 E2.24508
M73 Q10 S51
G1 X146.994 Y130.230 E0.01683
G1 X96.534 Y79.770 E2.24508
G1 X95.999 Y79.770 E0.01683
G1 X146.459 Y130.230 E2.24508
M73 P11 R51
M73 Q11 S51
G1 X145.924 Y130.230 E0.01683
G1 X95.464 Y79.770 E2.24508
G1 X94.929 Y79.770 E0.01683
G1 X145.389 Y130.230 E2.24508
G1 X144.854 Y130.230 E0.01683
G1 X94.393 Y79.770 E2.24508
G1 X93.858 Y79.770 E0.01683
G1 X144.319 Y130.230 E2.24508
G1 X143.784 Y130.230 E0.01683
G1 X93.323 Y79.770 E2.24508
G1 X92.788 Y79.770 E0.01683
G1 X143.248 Y130.230 E2.24508
G1 X142.713 Y130.230 E0.01683
G1 X92.253 Y79.770 E2.24508
G1 X91.718 Y79.770 E0.01683
G1 X142.178 Y130.230 E2.24508
G1 X141.643 Y130.230 E0.01683
G1 X91.183 Y79.770 E2.24508
M73 P12 R51
G1 X90.648 Y79.770 E0.01683
G1 X141.108 Y130.230 E2.24508
M73 Q12 S51
G1 X140.573 Y130.230 E0.01683
G1 X90.113 Y79.770 E2.24508
G1 X89.578 Y79.770 E0.01683
G1 X140.038 Y130.230 E2.24508
M73 P12 R50
G1 X139.503 Y130.230 E0.01683
G1 X89.043 Y79.770 E2.24508
G1 X88.508 Y79.770 E0.01683
G1 X138.968 Y130.230 E2.24508
G1 X138.433 Y130.230 E0.01683
G1 X87.973 Y79.770 E2.24508
M73 Q12 S50
G1 X87.437 Y79.770 E0.01683
G1 X137.898 Y130.230 E2.24508
G1 X137.363 Y130.230 E0.01683
G1 X86.902 Y79.770 E2.24508
G1 X86.367 Y79.770 E0.01683
G1 X136.828 Y130.230 E2.24508
G1 X136.292 Y130.230 E0.01683
G1 X85.832 Y79.770 E2.24508
M73 P13 R50
M73 Q13 S50
G1 X85.297 Y79.770 E0.01683
G1 X135.757 Y130.230 E2.24508
G1 X135.222 Y130.230 E0.01683
G1 X84.762 Y79.770 E2.24508
G1 X84.227 Y79.770 E0.01683
G1 X134.687 Y130.230 E2.24508
G1 X134.152 Y130.230 E0.01683
G1 X83.692 Y79.770 E2.24508
G1 X83.157 Y79.770 E0.01683
G1 X133.617 Y130.230 E2.24508
G1 X133.082 Y130.230 E0.01683
G1 X82.622 Y79.770 E2.24508
G1 X82.087 Y79.770 E0.01683
G1 X132.547 Y130.230 E2.24508
G1 X132.012 Y130.230 E0.01683
G1 X81.552 Y79.770 E2.24508
G1 X81.016 Y79.770 E0.01683
G1 X131.477 Y130.230 E2.24508
G1 X130.942 Y130.230 E0.01683
G1 X80.562 Y79.851 E2.24148
M73 P14 R49
M73 Q14 S50
G1 X80.295 Y80.118 E0.01190
G1 X130.407 Y130.230 E2.22958
G1 X129.871 Y130.230 E0.01683
G1 X80.270 Y80.629 E2.20688
M73 Q14 S49
G1 X80.270 Y81.164 E0.01683
G1 X129.336 Y130.230 E2.18307
G1 X128.801 Y130.230 E0.01683
G1 X80.270 Y81.699 E2.15926
G1 X80.270 Y82.234 E0.01683
G1 X128.266 Y130.230 E2.13546
G1 X127.731 Y130.230 E0.01683
G1 X80.270 Y82.769 E2.11165
G1 X80.270 Y83.304 E0.01683
G1 X127.196 Y130.230 E2.08784
G1 X126.661 Y130.230 E0.01683
G1 X80.270 Y83.839 E2.06403
G1 X80.270 Y84.374 E0.01683
G1 X126.126 Y130.230 E2.04023
G1 X125.591 Y130.230 E0.01683
G1 X80.270 Y84.909 E2.01642
M73 P15 R49
M73 Q15 S49
G1 X80.270 Y85.444 E0.01683
G1 X125.056 Y130.230 E1.99261
G1 X124.521 Y130.230 E0.01683
G1 X80.270 Y85.979 E1.96881
G1 X80.270 Y86.514 E0.01683
G1 X123.986 Y130.230 E1.94500
G1 X123.451 Y130.230 E0.01683
G1 X80.270 Y87.049 E1.92119
G1 X80.270 Y87.585 E0.01683
G1 X122.915 Y130.230 E1.89739
G1 X122.380 Y130.230 E0.01683
G1 X80.270 Y88.120 E1.87358
G1 X80.270 Y88.655 E0.01683
G1 X121.845 Y130.230 E1.84977
G1 X121.310 Y130.230 E0.01683
G1 X80.270 Y89.190 E1.82597
M73 P15 R48
G1 X80.270 Y89.725 E0.01683
G1 X120.775 Y130.230 E1.80216
G1 X120.240 Y130.230 E0.01683
G1 X80.270 Y90.260 E1.77835
G1 X80.270 Y90.795 E0.01683
G1 X119.705 Y130.230 E1.75455
M73 P16 R48
M73 Q16 S48
G1 X119.170 Y130.230 E0.01683
G1 X80.270 Y91.330 E1.73074
G1 X80.270 Y91.865 E0.01683
G1 X118.635 Y130.230 E1.70693
G1 X118.100 Y130.230 E0.01683
G1 X80.270 Y92.400 E1.68313
G1 X80.270 Y92.935 E0.01683
G1 X117.565 Y130.230 E1.65932
G1 X117.030 Y130.230 E0.01683
G1 X80.270 Y93.470 E1.63551
G1 X80.270 Y94.005 E0.01683
G1 X116.495 Y130.230 E1.61171
G1 X115.959 Y130.230 E0.01683
G1 X80.270 Y94.541 E1.58790
G1 X80.270 Y95.076 E0.01683
G1 X115.424 Y130.230 E1.56409
G1 X114.889 Y130.230 E0.01683
G1 X80.270 Y95.611 E1.54029
G1 X80.270 Y96.146 E0.01683
G1 X114.354 Y130.230 E1.51648
G1 X113.819 Y130.230 E0.01683
G1 X80.270 Y96.681 E1.49267
G1 X80.270 Y97.216 E0.01683
G1 X113.284 Y130.230 E1.46887
G1 X112.749 Y130.230 E0.01683
G1 X80.270 Y97.751 E1.44506
M73 P17 R48
G1 X80.270 Y98.286 E0.01683
G1 X112.214 Y130.230 E1.42125
M73 Q17 S48
G1 X111.679 Y130.230 E0.01683
G1 X80.270 Y98.821 E1.39745
G1 X80.270 Y99.356 E0.01683
