; generated by PrusaSlicer 2.2.0+linux-x64 on 2021-03-15 at 17:45:01 UTC

; 

; external perimeters extrusion width = 0.45mm
; perimeters extrusion width = 0.45mm
; infill extrusion width = 0.45mm
; solid infill extrusion width = 0.45mm
; top infill extrusion width = 0.40mm
; first layer extrusion width = 0.42mm

M73 P0 R74
M73 Q0 S74
M201 X1000 Y1000 Z200 E5000 ; sets maximum accelerations, mm/sec^2
M203 X200 Y200 Z12 E120 ; sets maximum feedrates, mm/sec
M204 P1250 R1250 T1250 ; sets acceleration (P, T) and retract acceleration (R), mm/sec^2
M205 X8.00 Y8.00 Z0.40 E4.50 ; sets the jerk limits, mm/sec
M205 S0 T0 ; sets the minimum extruding and travel feed rate, mm/sec
M107
M862.3 P "MK3S" ; printer model check
M862.1 P0.4 ; nozzle diameter check
M115 U3.9.3 ; tell printer latest fw version
G90 ; use absolute coordinates
M83 ; extruder relative mode
M104 S215 ; set extruder temp
M140 S60 ; set bed temp
M190 S60 ; wait for bed temp
M109 S215 ; wait for extruder temp
G28 W ; home all without mesh bed level
G80 ; mesh bed leveling
G1 Y-3.0 F1000.0 ; go outside print area
G92 E0.0
G1 X60.0 E9.0 F1000.0 ; intro line
M73 Q0 S74
M73 P0 R74
G1 X100.0 E12.5 F1000.0 ; intro line
G92 E0.0
M221 S95

; Don't change E values below. Excessive value can damage the printer.
M907 E430 ; set extruder motor current
G21 ; set units to millimeters
G90 ; use absolute coordinates
M83 ; use relative distances for extrusion
M900 K0.05 ; Filament gcode LA 1.5
M900 K30 ; Filament gcode LA 1.0
;BEFORE_LAYER_CHANGE
G92 E0.0
;0.2


G1 E-0.80000 F2100.00000
G1 Z0.400 F10800.000
;AFTER_LAYER_CHANGE
;0.2
G1 X78.543 Y60.495
G1 Z0.200
G1 E0.80000 F2100.00000
M204 S1000
G1 F1200.000
G1 X79.300 Y60.000 E0.02837
G1 X80.184 Y59.823 E0.02825
G1 X169.800 Y59.823 E2.80986
G1 X170.706 Y60.002 E0.02896
G1 X171.475 Y60.513 E0.02896
G1 X171.991 Y61.279 E0.02896
G1 X172.177 Y62.184 E0.02896
G1 X172.177 Y146.846 E2.65452
G1 X172.073 Y147.494 E0.02060
G1 X171.797 Y148.090 E0.02060
G1 X170.456 Y149.505 E0.06110
G1 X169.703 Y149.999 E0.02825
G1 X168.820 Y150.177 E0.02825
G1 X81.173 Y150.177 E2.74809
G1 X80.517 Y150.077 E0.02083
G1 X79.916 Y149.801 E0.02071
G1 X78.495 Y148.456 E0.06134
G1 X78.001 Y147.703 E0.02825
G1 X77.823 Y146.820 E0.02825
G1 X77.823 Y62.200 E2.65319
G1 X78.011 Y61.273 E0.02966
G1 X78.509 Y60.545 E0.02766
; printing object tray_32u4-Cube.stl id:0 copy 0
G1 F8640.000
G1 X79.300 Y60.000 E-0.22179
G1 X80.184 Y59.823 E-0.20806
G1 X81.614 Y59.823 E-0.33015
G1 E-0.04000 F2100.00000
G1 Z0.600 F10800.000
G1 X80.987 Y62.987
G1 Z0.200
G1 E0.80000 F2100.00000
G1 F1200.000
G1 X169.013 Y62.987 E2.75999
G1 X169.013 Y146.474 E2.61767
G1 X168.474 Y147.013 E0.02390
G1 X81.526 Y147.013 E2.72619
G1 X80.987 Y146.474 E0.02390
G1 X80.987 Y63.047 E2.61579
G1 X80.610 Y62.610 F10800.000
G1 F1200.000
G1 X169.390 Y62.610 E2.78363
G1 X169.390 Y146.630 E2.63439
G1 X168.630 Y147.390 E0.03369
G1 X81.370 Y147.390 E2.73599
G1 X80.610 Y146.630 E0.03369
G1 X80.610 Y62.670 E2.63251
G1 X80.957 Y62.809 F10800.000
G1 F8640.000
G1 X83.901 Y62.668 E-0.76000
G1 E-0.04000 F2100.00000
G1 Z0.600 F10800.000
G1 X168.900 Y63.863
G1 Z0.200
G1 E0.80000 F2100.00000
G1 F1200.000
G1 X168.307 Y63.270 E0.02628
G1 X167.774 Y63.270 E0.01672
G1 X168.730 Y64.226 E0.04240
G1 X168.730 Y64.759 E0.01672
G1 X167.241 Y63.270 E0.06605
G1 X166.707 Y63.270 E0.01672
G1 X168.730 Y65.293 E0.08970
G1 X168.730 Y65.826 E0.01672
G1 X166.174 Y63.270 E0.11335
G1 X165.641 Y63.270 E0.01672
G1 X168.730 Y66.359 E0.13700
G1 X168.730 Y66.893 E0.01672
G1 X165.107 Y63.270 E0.16065
G1 X164.574 Y63.270 E0.01672
G1 X168.730 Y67.426 E0.18430
G1 X168.730 Y67.959 E0.01672
G1 X164.041 Y63.270 E0.20795
G1 X163.507 Y63.270 E0.01672
G1 X168.730 Y68.493 E0.23160
M73 Q1 S73
G1 X168.730 Y69.026 E0.01672
G1 X162.974 Y63.270 E0.25525
M73 P1 R73
G1 X162.441 Y63.270 E0.01672
G1 X168.730 Y69.559 E0.27890
G1 X168.730 Y70.092 E0.01672
G1 X161.908 Y63.270 E0.30254
G1 X161.374 Y63.270 E0.01672
G1 X168.730 Y70.626 E0.32619
G1 X168.730 Y71.159 E0.01672
G1 X160.841 Y63.270 E0.34984
G1 X160.308 Y63.270 E0.01672
G1 X168.730 Y71.692 E0.37349
G1 X168.730 Y72.226 E0.01672
G1 X159.774 Y63.270 E0.39714
G1 X159.241 Y63.270 E0.01672
G1 X168.730 Y72.759 E0.42079
G1 X168.730 Y73.292 E0.01672
G1 X158.708 Y63.270 E0.44444
G1 X158.174 Y63.270 E0.01672
G1 X168.730 Y73.826 E0.46809
G1 X168.730 Y74.359 E0.01672
G1 X157.641 Y63.270 E0.49174
G1 X157.108 Y63.270 E0.01672
G1 X168.730 Y74.892 E0.51539
G1 X168.730 Y75.426 E0.01672
G1 X156.574 Y63.270 E0.53903
G1 X156.041 Y63.270 E0.01672
G1 X168.730 Y75.959 E0.56268
G1 X168.730 Y76.492 E0.01672
G1 X155.508 Y63.270 E0.58633
G1 X154.975 Y63.270 E0.01672
G1 X168.730 Y77.025 E0.60998
G1 X168.730 Y77.559 E0.01672
G1 X154.441 Y63.270 E0.63363
G1 X153.908 Y63.270 E0.01672
G1 X168.730 Y78.092 E0.65728
G1 X168.730 Y78.625 E0.01672
G1 X153.375 Y63.270 E0.68093
G1 X152.841 Y63.270 E0.01672
G1 X168.730 Y79.159 E0.70458
G1 X168.730 Y79.692 E0.01672
G1 X152.308 Y63.270 E0.72823
G1 X151.775 Y63.270 E0.01672
G1 X168.730 Y80.225 E0.75188
G1 X168.730 Y80.759 E0.01672
G1 X151.241 Y63.270 E0.77553
G1 X150.708 Y63.270 E0.01672
G1 X168.730 Y81.292 E0.79917
G1 X168.730 Y81.825 E0.01672
G1 X150.175 Y63.270 E0.82282
G1 X149.642 Y63.270 E0.01672
G1 X168.730 Y82.358 E0.84647
G1 X168.730 Y82.892 E0.01672
G1 X149.108 Y63.270 E0.87012
G1 X148.575 Y63.270 E0.01672
G1 X168.730 Y83.425 E0.89377
G1 X168.730 Y83.958 E0.01672
G1 X148.042 Y63.270 E0.91742
G1 X147.508 Y63.270 E0.01672
G1 X168.730 Y84.492 E0.94107
G1 X168.730 Y85.025 E0.01672
G1 X146.975 Y63.270 E0.96472
G1 X146.442 Y63.270 E0.01672
G1 X168.730 Y85.558 E0.98837
G1 X168.730 Y86.092 E0.01672
G1 X145.908 Y63.270 E1.01202
G1 X145.375 Y63.270 E0.01672
G1 X168.730 Y86.625 E1.03567
G1 X168.730 Y87.158 E0.01672
G1 X144.842 Y63.270 E1.05931
G1 X144.308 Y63.270 E0.01672
G1 X168.730 Y87.692 E1.08296
G1 X168.730 Y88.225 E0.01672
G1 X143.775 Y63.270 E1.10661
G1 X143.242 Y63.270 E0.01672
G1 X168.730 Y88.758 E1.13026
G1 X168.730 Y89.291 E0.01672
G1 X142.709 Y63.270 E1.15391
G1 X142.175 Y63.270 E0.01672
G1 X168.730 Y89.825 E1.17756
G1 X168.730 Y90.358 E0.01672
G1 X141.642 Y63.270 E1.20121
G1 X141.109 Y63.270 E0.01672
G1 X168.730 Y90.891 E1.22486
G1 X168.730 Y91.425 E0.01672
G1 X140.575 Y63.270 E1.24851
G1 X140.042 Y63.270 E0.01672
G1 X168.730 Y91.958 E1.27216
G1 X168.730 Y92.491 E0.01672
G1 X139.509 Y63.270 E1.29581
G1 X138.975 Y63.270 E0.01672
G1 X168.730 Y93.025 E1.31945
G1 X168.730 Y93.558 E0.01672
G1 X138.442 Y63.270 E1.34310
M73 Q2 S72
M73 P2 R72
G1 X137.909 Y63.270 E0.01672
G1 X168.730 Y94.091 E1.36675
G1 X168.730 Y94.624 E0.01672
G1 X137.376 Y63.270 E1.39040
G1 X136.842 Y63.270 E0.01672
G1 X168.730 Y95.158 E1.41405
G1 X168.730 Y95.691 E0.01672
G1 X136.309 Y63.270 E1.43770
G1 X135.776 Y63.270 E0.01672
G1 X168.730 Y96.224 E1.46135
G1 X168.730 Y96.758 E0.01672
G1 X135.242 Y63.270 E1.48500
G1 X134.709 Y63.270 E0.01672
G1 X168.730 Y97.291 E1.50865
G1 X168.730 Y97.824 E0.01672
G1 X134.176 Y63.270 E1.53230
G1 X133.642 Y63.270 E0.01672
G1 X168.730 Y98.358 E1.55594
G1 X168.730 Y98.891 E0.01672
G1 X133.109 Y63.270 E1.57959
G1 X132.576 Y63.270 E0.01672
G1 X168.730 Y99.424 E1.60324
G1 X168.730 Y99.958 E0.01672
G1 X132.042 Y63.270 E1.62689
G1 X131.509 Y63.270 E0.01672
G1 X168.730 Y100.491 E1.65054
G1 X168.730 Y101.024 E0.01672
G1 X130.976 Y63.270 E1.67419
G1 X130.443 Y63.270 E0.01672
G1 X168.730 Y101.557 E1.69784
G1 X168.730 Y102.091 E0.01672
G1 X129.909 Y63.270 E1.72149
G1 X129.376 Y63.270 E0.01672
G1 X168.730 Y102.624 E1.74514
G1 X168.730 Y103.157 E0.01672
G1 X128.843 Y63.270 E1.76879
G1 X128.309 Y63.270 E0.01672
G1 X168.730 Y103.691 E1.79244
G1 X168.730 Y104.224 E0.01672
G1 X127.776 Y63.270 E1.81608
G1 X127.243 Y63.270 E0.01672
G1 X168.730 Y104.757 E1.83973
G1 X168.730 Y105.291 E0.01672
G1 X126.709 Y63.270 E1.86338
G1 X126.176 Y63.270 E0.01672
G1 X168.730 Y105.824 E1.88703
M73 Q4 S71
M73 P4 R71
G1 X168.730 Y106.357 E0.01672
G1 X125.643 Y63.270 E1.91068
G1 X125.110 Y63.270 E0.01672
G1 X168.730 Y106.890 E1.93433
G1 X168.730 Y107.424 E0.01672
G1 X124.576 Y63.270 E1.95798
G1 X124.043 Y63.270 E0.01672
G1 X168.730 Y107.957 E1.98163
G1 X168.730 Y108.490 E0.01672
G1 X123.510 Y63.270 E2.00528
G1 X122.976 Y63.270 E0.01672
G1 X168.730 Y109.024 E2.02893
G1 X168.730 Y109.557 E0.01672
G1 X122.443 Y63.270 E2.05258
G1 X121.910 Y63.270 E0.01672
G1 X168.730 Y110.090 E2.07622
G1 X168.730 Y110.624 E0.01672
G1 X121.376 Y63.270 E2.09987
G1 X120.843 Y63.270 E0.01672
G1 X168.730 Y111.157 E2.12352
G1 X168.730 Y111.690 E0.01672
G1 X120.310 Y63.270 E2.14717
G1 X119.776 Y63.270 E0.01672
G1 X168.730 Y112.224 E2.17082
G1 X168.730 Y112.757 E0.01672
G1 X119.243 Y63.270 E2.19447
G1 X118.710 Y63.270 E0.01672
G1 X168.730 Y113.290 E2.21812
G1 X168.730 Y113.823 E0.01672
G1 X118.177 Y63.270 E2.24177
G1 X117.643 Y63.270 E0.01672
G1 X168.730 Y114.357 E2.26542
G1 X168.730 Y114.890 E0.01672
G1 X117.110 Y63.270 E2.28907
G1 X116.577 Y63.270 E0.01672
G1 X168.730 Y115.423 E2.31271
M73 Q5 S70
M73 P5 R70
G1 X168.730 Y115.957 E0.01672
G1 X116.043 Y63.270 E2.33636
G1 X115.510 Y63.270 E0.01672
G1 X168.730 Y116.490 E2.36001
G1 X168.730 Y117.023 E0.01672
G1 X114.977 Y63.270 E2.38366
G1 X114.443 Y63.270 E0.01672
G1 X168.730 Y117.557 E2.40731
G1 X168.730 Y118.090 E0.01672
G1 X113.910 Y63.270 E2.43096
G1 X113.377 Y63.270 E0.01672
G1 X168.730 Y118.623 E2.45461
G1 X168.730 Y119.156 E0.01672
G1 X112.844 Y63.270 E2.47826
G1 X112.310 Y63.270 E0.01672
G1 X168.730 Y119.690 E2.50191
G1 X168.730 Y120.223 E0.01672
G1 X111.777 Y63.270 E2.52556
G1 X111.244 Y63.270 E0.01672
G1 X168.730 Y120.756 E2.54921
G1 X168.730 Y121.290 E0.01672
G1 X110.710 Y63.270 E2.57285
G1 X110.177 Y63.270 E0.01672
G1 X168.730 Y121.823 E2.59650
G1 X168.730 Y122.356 E0.01672
G1 X109.644 Y63.270 E2.62015
G1 X109.110 Y63.270 E0.01672
G1 X168.730 Y122.890 E2.64380
G1 X168.730 Y123.423 E0.01672
G1 X108.577 Y63.270 E2.66745
M73 Q6 S69
M73 P6 R69
G1 X108.044 Y63.270 E0.01672
G1 X168.730 Y123.956 E2.69110
G1 X168.730 Y124.490 E0.01672
G1 X107.510 Y63.270 E2.71475
G1 X106.977 Y63.270 E0.01672
G1 X168.730 Y125.023 E2.73840
G1 X168.730 Y125.556 E0.01672
G1 X106.444 Y63.270 E2.76205
G1 X105.911 Y63.270 E0.01672
G1 X168.730 Y126.089 E2.78570
G1 X168.730 Y126.623 E0.01672
G1 X105.377 Y63.270 E2.80935
G1 X104.844 Y63.270 E0.01672
G1 X168.730 Y127.156 E2.83299
G1 X168.730 Y127.689 E0.01672
G1 X104.311 Y63.270 E2.85664
G1 X103.777 Y63.270 E0.01672
G1 X168.730 Y128.223 E2.88029
G1 X168.730 Y128.756 E0.01672
G1 X103.244 Y63.270 E2.90394
G1 X102.711 Y63.270 E0.01672
G1 X168.730 Y129.289 E2.92759
G1 X168.730 Y129.823 E0.01672
G1 X102.177 Y63.270 E2.95124
G1 X101.644 Y63.270 E0.01672
G1 X168.730 Y130.356 E2.97489
G1 X168.730 Y130.889 E0.01672
G1 X101.111 Y63.270 E2.99854
M73 Q8 S68
M73 P8 R68
G1 X100.578 Y63.270 E0.01672
G1 X168.730 Y131.422 E3.02219
G1 X168.730 Y131.956 E0.01672
G1 X100.044 Y63.270 E3.04584
G1 X99.511 Y63.270 E0.01672
G1 X168.730 Y132.489 E3.06949
G1 X168.730 Y133.022 E0.01672
G1 X98.978 Y63.270 E3.09313
G1 X98.444 Y63.270 E0.01672
G1 X168.730 Y133.556 E3.11678
G1 X168.730 Y134.089 E0.01672
G1 X97.911 Y63.270 E3.14043
G1 X97.378 Y63.270 E0.01672
G1 X168.730 Y134.622 E3.16408
G1 X168.730 Y135.156 E0.01672
G1 X96.844 Y63.270 E3.18773
G1 X96.311 Y63.270 E0.01672
G1 X168.730 Y135.689 E3.21138
G1 X168.730 Y136.222 E0.01672
G1 X95.778 Y63.270 E3.23503
G1 X95.244 Y63.270 E0.01672
G1 X168.730 Y136.756 E3.25868
G1 X168.730 Y137.289 E0.01672
G1 X94.711 Y63.270 E3.28233
M73 Q9 S67
M73 P9 R67
G1 X94.178 Y63.270 E0.01672
G1 X168.730 Y137.822 E3.30598
G1 X168.730 Y138.355 E0.01672
G1 X93.645 Y63.270 E3.32962
G1 X93.111 Y63.270 E0.01672
G1 X168.730 Y138.889 E3.35327
G1 X168.730 Y139.422 E0.01672
G1 X92.578 Y63.270 E3.37692
G1 X92.045 Y63.270 E0.01672
G1 X168.730 Y139.955 E3.40057
G1 X168.730 Y140.489 E0.01672
G1 X91.511 Y63.270 E3.42422
G1 X90.978 Y63.270 E0.01672
G1 X168.730 Y141.022 E3.44787
G1 X168.730 Y141.555 E0.01672
G1 X90.445 Y63.270 E3.47152
G1 X89.911 Y63.270 E0.01672
G1 X168.730 Y142.089 E3.49517
G1 X168.730 Y142.622 E0.01672
G1 X89.378 Y63.270 E3.51882
G1 X88.845 Y63.270 E0.01672
G1 X168.730 Y143.155 E3.54247
M73 Q11 S66
M73 P11 R66
G1 X168.730 Y143.688 E0.01672
G1 X88.312 Y63.270 E3.56612
G1 X87.778 Y63.270 E0.01672
G1 X168.730 Y144.222 E3.58976
G1 X168.730 Y144.755 E0.01672
G1 X87.245 Y63.270 E3.61341
G1 X86.712 Y63.270 E0.01672
G1 X168.730 Y145.288 E3.63706
G1 X168.730 Y145.822 E0.01672
G1 X86.178 Y63.270 E3.66071
G1 X85.645 Y63.270 E0.01672
G1 X168.730 Y146.355 E3.68436
G1 X168.464 Y146.623 E0.01182
G1 X85.112 Y63.270 E3.69623
G1 X84.578 Y63.270 E0.01672
G1 X168.039 Y146.730 E3.70100
G1 X167.505 Y146.730 E0.01672
G1 X84.045 Y63.270 E3.70100
G1 X83.512 Y63.270 E0.01672
G1 X166.972 Y146.730 E3.70100
G1 X166.439 Y146.730 E0.01672
G1 X82.979 Y63.270 E3.70100
M73 Q12 S65
M73 P12 R65
G1 X82.445 Y63.270 E0.01672
G1 X165.905 Y146.730 E3.70100
G1 X165.372 Y146.730 E0.01672
G1 X81.912 Y63.270 E3.70100
G1 X81.379 Y63.270 E0.01672
G1 X164.839 Y146.730 E3.70100
G1 X164.306 Y146.730 E0.01672
G1 X81.270 Y63.694 E3.68217
G1 X81.270 Y64.228 E0.01672
G1 X163.772 Y146.730 E3.65852
G1 X163.239 Y146.730 E0.01672
G1 X81.270 Y64.761 E3.63487
G1 X81.270 Y65.294 E0.01672
G1 X162.706 Y146.730 E3.61122
G1 X162.172 Y146.730 E0.01672
G1 X81.270 Y65.828 E3.58757
G1 X81.270 Y66.361 E0.01672
G1 X161.639 Y146.730 E3.56392
G1 X161.106 Y146.730 E0.01672
G1 X81.270 Y66.894 E3.54027
G1 X81.270 Y67.428 E0.01672
G1 X160.572 Y146.730 E3.51662
M73 Q13 S64
M73 P13 R64
G1 X160.039 Y146.730 E0.01672
G1 X81.270 Y67.961 E3.49298
G1 X81.270 Y68.494 E0.01672
G1 X159.506 Y146.730 E3.46933
G1 X158.972 Y146.730 E0.01672
G1 X81.270 Y69.028 E3.44568
G1 X81.270 Y69.561 E0.01672
G1 X158.439 Y146.730 E3.42203
G1 X157.906 Y146.730 E0.01672
G1 X81.270 Y70.094 E3.39838
G1 X81.270 Y70.627 E0.01672
G1 X157.373 Y146.730 E3.37473
G1 X156.839 Y146.730 E0.01672
G1 X81.270 Y71.161 E3.35108
G1 X81.270 Y71.694 E0.01672
G1 X156.306 Y146.730 E3.32743
G1 X155.773 Y146.730 E0.01672
G1 X81.270 Y72.227 E3.30378
G1 X81.270 Y72.761 E0.01672
G1 X155.239 Y146.730 E3.28013
G1 X154.706 Y146.730 E0.01672
G1 X81.270 Y73.294 E3.25648
G1 X81.270 Y73.827 E0.01672
G1 X154.173 Y146.730 E3.23284
M73 Q15 S63
M73 P15 R63
G1 X153.639 Y146.730 E0.01672
G1 X81.270 Y74.361 E3.20919
G1 X81.270 Y74.894 E0.01672
G1 X153.106 Y146.730 E3.18554
G1 X152.573 Y146.730 E0.01672
G1 X81.270 Y75.427 E3.16189
G1 X81.270 Y75.960 E0.01672
G1 X152.040 Y146.730 E3.13824
G1 X151.506 Y146.730 E0.01672
G1 X81.270 Y76.494 E3.11459
G1 X81.270 Y77.027 E0.01672
G1 X150.973 Y146.730 E3.09094
G1 X150.440 Y146.730 E0.01672
G1 X81.270 Y77.560 E3.06729
G1 X81.270 Y78.094 E0.01672
G1 X149.906 Y146.730 E3.04364
G1 X149.373 Y146.730 E0.01672
G1 X81.270 Y78.627 E3.01999
G1 X81.270 Y79.160 E0.01672
G1 X148.840 Y146.730 E2.99635
G1 X148.306 Y146.730 E0.01672
G1 X81.270 Y79.694 E2.97270
G1 X81.270 Y80.227 E0.01672
G1 X147.773 Y146.730 E2.94905
G1 X147.240 Y146.730 E0.01672
G1 X81.270 Y80.760 E2.92540
M73 Q16 S62
M73 P16 R62
G1 X81.270 Y81.294 E0.01672
G1 X146.706 Y146.730 E2.90175
G1 X146.173 Y146.730 E0.01672
G1 X81.270 Y81.827 E2.87810
G1 X81.270 Y82.360 E0.01672
G1 X145.640 Y146.730 E2.85445
G1 X145.107 Y146.730 E0.01672
G1 X81.270 Y82.893 E2.83080
G1 X81.270 Y83.427 E0.01672
G1 X144.573 Y146.730 E2.80715
G1 X144.040 Y146.730 E0.01672
G1 X81.270 Y83.960 E2.78350
G1 X81.270 Y84.493 E0.01672
G1 X143.507 Y146.730 E2.75985
G1 X142.973 Y146.730 E0.01672
G1 X81.270 Y85.027 E2.73621
G1 X81.270 Y85.560 E0.01672
G1 X142.440 Y146.730 E2.71256
G1 X141.907 Y146.730 E0.01672
G1 X81.270 Y86.093 E2.68891
G1 X81.270 Y86.627 E0.01672
G1 X141.373 Y146.730 E2.66526
G1 X140.840 Y146.730 E0.01672
G1 X81.270 Y87.160 E2.64161
G1 X81.270 Y87.693 E0.01672
G1 X140.307 Y146.730 E2.61796
G1 X139.774 Y146.730 E0.01672
G1 X81.270 Y88.226 E2.59431
M73 Q18 S61
M73 P18 R60
G1 X81.270 Y88.760 E0.01672
G1 X139.240 Y146.730 E2.57066
G1 X138.707 Y146.730 E0.01672
G1 X81.270 Y89.293 E2.54701
G1 X81.270 Y89.826 E0.01672
G1 X138.174 Y146.730 E2.52336
G1 X137.640 Y146.730 E0.01672
G1 X81.270 Y90.360 E2.49971
G1 X81.270 Y90.893 E0.01672
